O0010 (SHORT AIR CUT)
(MACHINE)
(  VENDOR MATSUURA)
(  MODEL MC-510V WITH YASNAC MX3 CONTROLLER)
(  DESCRIPTION GENERIC 3-AXIS)
(T0001 D=0.5 CR=0. - ZMIN=-0.52 - FLAT END MILL)
G00
G90 G94 G17
G20
(WHEN USING FUSION 360 FOR PERSONAL USE, THE FEEDRATE OF)
(RAPID MOVES IS REDUCED TO MATCH THE FEEDRATE OF CUTTING)
(MOVES, WHICH CAN INCREASE MACHINING TIME. UNRESTRICTED RAPID)
(MOVES ARE AVAILABLE WITH A FUSION 360 SUBSCRIPTION.)
G28 G91 Z0.
G90
(2D ADAPTIVE1)
M09
T0001 M06
S100 M03
G00 G54
M08
G00 X0.2186 Y0.0928
G43 Z0.6 H01
G01 Z0.2 F25.
Z0.102
G03 X-0.2186 Y-0.0928 Z0.0759 I-0.2186 J-0.0928 F15.
X0.2186 Y0.0928 Z0.0499 I0.2186 J0.0928
X-0.2186 Y-0.0928 Z0.0238 I-0.2186 J-0.0928
X0.2186 Y0.0928 Z-0.0022 I0.2186 J0.0928
X-0.2186 Y-0.0928 Z-0.0283 I-0.2186 J-0.0928
X0.2186 Y0.0928 Z-0.0543 I0.2186 J0.0928
X-0.2186 Y-0.0928 Z-0.0804 I-0.2186 J-0.0928
X0.2186 Y0.0928 Z-0.1064 I0.2186 J0.0928
X-0.2186 Y-0.0928 Z-0.1325 I-0.2186 J-0.0928
X0.2186 Y0.0928 Z-0.1586 I0.2186 J0.0928
X-0.2186 Y-0.0928 Z-0.1846 I-0.2186 J-0.0928
X0.2186 Y0.0928 Z-0.2107 I0.2186 J0.0928
X-0.2186 Y-0.0928 Z-0.2367 I-0.2186 J-0.0928
X0.2186 Y0.0928 Z-0.2628 I0.2186 J0.0928
X-0.2186 Y-0.0928 Z-0.2888 I-0.2186 J-0.0928
X0.2186 Y0.0928 Z-0.3149 I0.2186 J0.0928
X-0.2186 Y-0.0928 Z-0.3409 I-0.2186 J-0.0928
X0.2186 Y0.0928 Z-0.367 I0.2186 J0.0928
X-0.2186 Y-0.0928 Z-0.3931 I-0.2186 J-0.0928
X0.2186 Y0.0928 Z-0.4191 I0.2186 J0.0928
X-0.2186 Y-0.0928 Z-0.4452 I-0.2186 J-0.0928
X0.2186 Y0.0928 Z-0.4712 I0.2186 J0.0928
X-0.2186 Y-0.0928 Z-0.4973 I-0.2186 J-0.0928
X0.2375 Y0. Z-0.52 I0.2186 J0.0928
X-0.2375 I-0.2375
X0.2375 I0.2375
G01 X0.2377 Y0.0133 F25.
X0.2393 Y0.0265
X0.252 Y0.0783
X0.2552 Y0.0854
X0.2582 Y0.0937
X0.2607 Y0.1029
X0.2626 Y0.1133
X0.2638 Y0.1247
X0.2641 Y0.137
X0.2633 Y0.1502
X0.2613 Y0.1643
X0.2581 Y0.179
X0.2533 Y0.1943
X0.2471 Y0.2101
X0.2392 Y0.226
X0.2296 Y0.2421
X0.2182 Y0.258
X0.135 Y0.7161
X0.12 Y0.7187
X0.09 Y0.7224
X0.06 Y0.726
X0.4349 Y-0.5839
X0.4649 Y-0.5615
X0.4733 Y-0.5542
X0.5098 Y-0.5199
X0.5205 Y-0.5093
X0.5478 Y-0.4793
X0.5548 Y-0.4715
X0.5855 Y-0.4344
X0.5959 Y-0.4194
X0.6056 Y-0.4044
X0.6151 Y-0.3895
X0.6243 Y-0.3745
X0.6333 Y-0.3595
X0.6424 Y-0.3445
X0.6448 Y-0.3396
X0.6598 Y-0.3077
X0.6636 Y-0.2996
X0.6766 Y-0.2696
X0.6828 Y-0.2547
X0.6877 Y-0.2395
G03 X0.6868 Y-0.2091 I-0.0481 J0.0138
G01 X0.6849 Y-0.2038 Z-0.5197
X0.6831 Y-0.1986 Z-0.5187
X0.6813 Y-0.1935 Z-0.5172
X0.6795 Y-0.1886 Z-0.515
X0.6779 Y-0.184 Z-0.5123
X0.6764 Y-0.1797 Z-0.5091
X0.675 Y-0.1758 Z-0.5054
X0.6738 Y-0.1722 Z-0.5012
X0.6727 Y-0.1692 Z-0.4966
X0.6718 Y-0.1666 Z-0.4917
X0.6711 Y-0.1646 Z-0.4865
X0.6705 Y-0.1631 Z-0.4811
X0.6702 Y-0.1622 Z-0.4756
X0.6701 Y-0.1619 Z-0.47
Z0.6
M09
M05
G28 G91 Z0.
G90 G53 G00 X0. Y0.
G52
M30
%
