O1001 (BOBC TEST)
(MACHINE)
(  VENDOR MATSUURA)
(  MODEL MC-510V WITH YASNAC MX3 CONTROLLER)
(T0001 D=3. CR=0.031 - ZMIN=0.98 - FACE MILL)
(T0003 D=0.375 CR=0. - ZMIN=0.22 - FLAT END MILL)
(T0010 D=0.1772 CR=0. TAPER=118DEG - ZMIN=0.405 - DRILL)
(T0013 D=0.192 CR=0. - ZMIN=0.505 - RIGHT HAND TAP)
(T0015 D=0.25 CR=0. TAPER=45DEG - ZMIN=0.875 - CHAMFER MILL)
(T0016 D=1. CR=0. - ZMIN=0.595 - SLOT MILL)
G00
G90 G94 G17
G20
G28 G91 Z0.
G90
(FACE1)
M09
T0001 M06
T0003
S4000 M03
G00 G54
M08
G00 X-1.65 Y-1.
G43 Z1.6 H01
G00 Z1.2
G01 Z0.98 F20.
X-1.6
X3.9358
G00 Z1.6
M05
G28 G91 Z0.
G90
(ADAPTIVE1)
M09
M01
T0003 M06
T0016
S4000 M03
G54
M08
G00 X2.7516 Y-2.0342
G43 Z1.38 H03
G00 Z1.2
Z0.3754
G01 Z0.3554 F25.
X2.7513 Y-2.0341 Z0.3519
X2.7504 Y-2.0339 Z0.3486
X2.749 Y-2.0335 Z0.3454
X2.7471 Y-2.033 Z0.3425
X2.7447 Y-2.0324 Z0.3401
X2.7419 Y-2.0317 Z0.3381
X2.7389 Y-2.0309 Z0.3366
X2.7356 Y-2.0301 Z0.3357
X2.7322 Y-2.0292 Z0.3354
G03 X2.5281 Y-1.9999 I-0.2376 J-0.9274
G01 X2.5194
X2.4831 Y-2.0265
X2.4753 Y-2.0307
X2.4599 Y-2.0403
X2.4458 Y-2.0518
X2.4334 Y-2.0651
X2.4325 Y-2.0662
X2.4102 Y-2.0909
X2.403 Y-2.0983
X2.3988 Y-2.1021
X2.3736 Y-2.1243
X2.3731 Y-2.1246
X2.3469 Y-2.14
X2.3356 Y-2.1451
X2.3244 Y-2.1495
X2.3132 Y-2.1535
X2.2907 Y-2.1595
X2.2795 Y-2.1621
X2.257 Y-2.166
X2.2458 Y-2.1668
X2.2234 Y-2.1675
X0.1124
X0.09 Y-2.1668
X0.0788 Y-2.166
X0.0563 Y-2.1621
X0.0451 Y-2.1595
X0.0226 Y-2.1535
X0.0114 Y-2.1495
X0.0002 Y-2.1451
X-0.0111 Y-2.14
X-0.0373 Y-2.1246
X-0.0378 Y-2.1243
X-0.063 Y-2.1021
X-0.0672 Y-2.0983
X-0.0744 Y-2.0909
X-0.0967 Y-2.0662
X-0.0976 Y-2.0651
X-0.1009 Y-2.0597
X-0.1121 Y-2.0412
X-0.1161 Y-2.0346
X-0.1233 Y-2.0174
X-0.1255 Y-2.0121
X-0.1288 Y-2.0009
X-0.135 Y-1.9784
X-0.1373 Y-1.9672
X-0.1394 Y-1.9559
X-0.1413 Y-1.9447
X-0.1421 Y-1.9222
X-0.1415 Y-1.9109
X-0.1402 Y-1.8997
X-0.1389 Y-1.8884
X-0.138 Y-1.885
X-0.1312 Y-1.8501
X-0.1247 Y-1.8056
X-0.1204 Y-1.7609
X-0.1175 Y-1.716
X-0.1155 Y-1.6711
X-0.1141 Y-1.6261
X-0.1132 Y-1.5812
X-0.1125 Y-1.5362
X-0.1121 Y-1.4913
X-0.1118 Y-1.4463
X-0.1116 Y-1.4013
X-0.1115 Y-1.3564
X-0.1114 Y-1.2664
Y-1.1316
X-0.1117 Y-0.7718
X-0.1122 Y-0.1423
X-0.1086 Y-0.0975
X-0.0914 Y-0.056
X-0.0648 Y-0.0198
X-0.0315 Y0.0105
X0.0061 Y0.0351
X0.0467 Y0.0544
X0.0891 Y0.0694
X0.1326 Y0.0807
X0.1768 Y0.0891
X0.2214 Y0.0953
X0.2661 Y0.0998
X0.3109 Y0.103
X0.3558 Y0.1053
X0.4008 Y0.107
X0.4457 Y0.1082
X0.4907 Y0.109
X0.5356 Y0.1096
X0.5806 Y0.1101
X0.6256 Y0.1104
X0.6705 Y0.1106
X0.7155 Y0.1108
X0.8054 Y0.111
X0.9722 Y0.1113
X0.9905 Y0.1126
X1.0085 Y0.1165
X1.0258 Y0.1229
X1.042 Y0.1317
X1.0485 Y0.1359
X1.0556 Y0.1393
X1.0781 Y0.1494
X1.0893 Y0.1531
X1.1085 Y0.1584
X1.1342 Y0.1641
X1.1454 Y0.1657
X1.1679 Y0.1674
X1.1904 Y0.1657
X1.2016 Y0.1641
X1.2274 Y0.1584
X1.2465 Y0.1531
X1.2577 Y0.1494
X1.2645 Y0.1472
X1.2856 Y0.1414
X1.313 Y0.1353
X1.3504 Y0.1289
X1.3951 Y0.1235
X1.4399 Y0.1199
X1.4848 Y0.1174
X1.5297 Y0.1157
X1.5747 Y0.1145
X1.6196 Y0.1137
X1.6646 Y0.1132
X1.7096 Y0.1128
X1.7545 Y0.1126
X1.7995 Y0.1124
X1.8444 Y0.1123
X1.9344 Y0.1122
X2.0693
X2.2042 Y0.1123
X2.2485 Y0.105
X2.2889 Y0.0852
X2.3237 Y0.0568
X2.3526 Y0.0223
X2.3759 Y-0.0161
X2.3942 Y-0.0572
X2.4082 Y-0.0999
X2.4188 Y-0.1437
X2.4266 Y-0.1879
X2.4323 Y-0.2325
X2.4365 Y-0.2773
X2.4395 Y-0.3222
X2.4416 Y-0.3671
X2.4432 Y-0.412
X2.4443 Y-0.457
X2.4451 Y-0.5019
X2.4456 Y-0.5469
X2.446 Y-0.5918
X2.4463 Y-0.6368
X2.4465 Y-0.6818
X2.4468 Y-0.7717
X2.4469 Y-0.8167
X2.4472 Y-0.9965
X2.448 Y-1.7609
X2.4474 Y-1.7729
X2.4476 Y-1.7881
X2.4497 Y-1.8032
X2.4535 Y-1.8179
X2.4592 Y-1.832
X2.4628 Y-1.8434
X2.4662 Y-1.8547
X2.4691 Y-1.8659
X2.4747 Y-1.8884
X2.476 Y-1.8997
X2.4773 Y-1.9109
X2.4779 Y-1.9222
X2.4771 Y-1.9447
X2.4752 Y-1.9559
X2.4731 Y-1.9672
X2.4708 Y-1.9784
X2.466 Y-1.9958
G03 X2.4804 Y-2.0198 I0.0195 J-0.0046
X2.5055 Y-2.0009 I0.0051 J0.0193 F100.
G01 X2.5493 Y-1.8659
X2.5773 Y-1.3486
X2.5734 Y-0.4377
X2.5661 Y-0.2555
X2.5431 Y-0.1003
X2.5192 Y-0.0216
X2.4906 Y0.0459
X2.4465 Y0.1134
X2.3743 Y0.183
X2.3204 Y0.2146
X2.2683 Y0.2334
X2.2234 Y0.2406
X1.2914 Y0.2673
G03 X1.2342 Y0.1696 I-0.0061 J-0.062
G01 X1.2343 Y0.1695
X1.2577 Y0.1494 F25.
X1.2802 Y0.1393
X1.2873 Y0.1359
X1.3049 Y0.1246
X1.3094 Y0.1215
X1.3139 Y0.118
X1.3186 Y0.1143
X1.325 Y0.11
X1.3329 Y0.1051
X1.3427 Y0.0997
X1.3538 Y0.0943
X1.3676 Y0.0883
X1.3841 Y0.0822
X1.4046 Y0.0757
X1.4298 Y0.069
X1.4625 Y0.062
X1.5066 Y0.0547
X1.5513 Y0.0496
X1.5961 Y0.046
X1.641 Y0.0435
X1.6859 Y0.0416
X1.7309 Y0.0403
X1.7758 Y0.0394
X1.8208 Y0.0387
X1.8658 Y0.0383
X1.9107 Y0.038
X1.9557 Y0.0377
X2.0007 Y0.0376
X2.0456 Y0.0375
X2.0906 Y0.0364
X2.1344 Y0.0262
X2.1752 Y0.0074
X2.2119 Y-0.0186
X2.2438 Y-0.0503
X2.2708 Y-0.0863
X2.2932 Y-0.1253
X2.3113 Y-0.1664
X2.3257 Y-0.209
X2.337 Y-0.2525
X2.3458 Y-0.2966
X2.3524 Y-0.3411
X2.3575 Y-0.3858
X2.3613 Y-0.4306
X2.3641 Y-0.4755
X2.3662 Y-0.5204
X2.3678 Y-0.5653
X2.3689 Y-0.6103
X2.3698 Y-0.6552
X2.3704 Y-0.7002
X2.3709 Y-0.7451
X2.3713 Y-0.7901
X2.3715 Y-0.8351
X2.3717 Y-0.88
X2.372 Y-0.97
X2.3722 Y-1.0599
X2.3725 Y-1.2847
X2.3728 Y-1.6426
X2.374 Y-1.6596
X2.3773 Y-1.6762
X2.3827 Y-1.6923
X2.3903 Y-1.7075
X2.4428 Y-1.7985
X2.454 Y-1.821
X2.4592 Y-1.832
X2.4704 Y-1.8418
X2.4816 Y-1.8423
X2.4854 Y-1.8394
X2.4946 Y-1.8322 F100.
X2.4969 Y-1.731
X2.495 Y-0.4939
X2.4861 Y-0.359
X2.4631 Y-0.2227
X2.4462 Y-0.1565
X2.4142 Y-0.0751
X2.3688 Y0.0009
X2.3244 Y0.0538
X2.2636 Y0.1044
X2.2094 Y0.1359
X2.1439 Y0.1584
X2.0437 Y0.1689
X1.3588 Y0.2242
G03 X1.2983 Y0.1444 I-0.0007 J-0.0623
X1.3139 Y0.118 I0.0598 J0.0175 F25.
G01 X1.3363 Y0.0969
X1.3426 Y0.0909
X1.3476 Y0.0854
X1.356 Y0.0757
X1.3615 Y0.0699
X1.3665 Y0.0652
X1.3729 Y0.0597
X1.3799 Y0.0543
X1.3881 Y0.0485
X1.3985 Y0.0419
X1.4099 Y0.0355
X1.4232 Y0.0288
X1.4394 Y0.0216
X1.4578 Y0.0145
X1.4805 Y0.0069
X1.5083 Y-0.0008
X1.5426 Y-0.0086
X1.5869 Y-0.0164
X1.6315 Y-0.0221
X1.6762 Y-0.0263
X1.7211 Y-0.0293
X1.766 Y-0.0316
X1.8109 Y-0.0332
X1.8559 Y-0.0345
X1.9008 Y-0.0354
X1.9458 Y-0.0361
X1.9906 Y-0.0395
X2.0343 Y-0.0501
X2.0756 Y-0.0681
X2.1132 Y-0.0926
X2.1466 Y-0.1227
X2.1756 Y-0.1571
X2.2002 Y-0.1947
X2.2206 Y-0.2348
X2.2373 Y-0.2765
X2.2508 Y-0.3195
X2.2615 Y-0.3631
X2.2699 Y-0.4073
X2.2764 Y-0.4518
X2.2815 Y-0.4965
X2.2853 Y-0.5413
X2.2883 Y-0.5861
X2.2905 Y-0.631
X2.2922 Y-0.676
X2.2935 Y-0.7209
X2.2944 Y-0.7659
X2.2952 Y-0.8108
X2.2957 Y-0.8558
X2.2961 Y-0.9007
X2.2964 Y-0.9457
X2.2967 Y-0.9907
X2.297 Y-1.0806
X2.2973 Y-1.2155
X2.2974 Y-1.2605
X2.2977 Y-1.5125
X2.2988 Y-1.5294
X2.3022 Y-1.546
X2.3076 Y-1.5621
X2.3151 Y-1.5773
X2.3903 Y-1.7075
G03 X2.4174 Y-1.7141 I0.017 J0.0106
X2.4272 Y-1.6972 I-0.0102 J0.0172 F100.
G01 X2.4205 Y-0.6064
X2.403 Y-0.4249
X2.3786 Y-0.2915
X2.3566 Y-0.224
X2.3132 Y-0.1307
X2.2786 Y-0.0778
X2.2234 Y-0.016
X2.1672 Y0.027
X2.1111 Y0.0578
X2.0492 Y0.0796
X1.9988 Y0.0909
X1.4149 Y0.1762
G03 X1.3432 Y0.1035 I-0.0104 J-0.0614
X1.356 Y0.0757 I0.0613 J0.0113 F25.
G01 X1.3623 Y0.0684
X1.37 Y0.0585
X1.371 Y0.0571
X1.378 Y0.0459
X1.3846 Y0.0346
X1.388 Y0.0294
X1.3915 Y0.0245
X1.3953 Y0.0197
X1.4002 Y0.0142
X1.4056 Y0.0087
X1.4121 Y0.0025
X1.4197 Y-0.0039
X1.4283 Y-0.0105
X1.4389 Y-0.0178
X1.4502 Y-0.0249
X1.4643 Y-0.0327
X1.4801 Y-0.0405
X1.4986 Y-0.0486
X1.5203 Y-0.0568
X1.5466 Y-0.0654
X1.5776 Y-0.0738
X1.6168 Y-0.0824
X1.6612 Y-0.0899
X1.7058 Y-0.0955
X1.7505 Y-0.0998
X1.7954 Y-0.103
X1.8403 Y-0.1055
X1.8851 Y-0.1095
X1.9291 Y-0.1188
X1.9711 Y-0.1346
X2.0103 Y-0.1567
X2.0458 Y-0.1843
X2.0772 Y-0.2164
X2.1044 Y-0.2522
X2.1275 Y-0.2908
X2.1468 Y-0.3314
X2.1627 Y-0.3735
X2.1756 Y-0.4166
X2.1859 Y-0.4604
X2.1941 Y-0.5046
X2.2006 Y-0.5491
X2.2056 Y-0.5937
X2.2095 Y-0.6385
X2.2126 Y-0.6834
X2.2149 Y-0.7283
X2.2167 Y-0.7732
X2.218 Y-0.8182
X2.2191 Y-0.8631
X2.2199 Y-0.9081
X2.2205 Y-0.953
X2.221 Y-0.998
X2.2213 Y-1.043
X2.2216 Y-1.0879
X2.2219 Y-1.1329
X2.2222 Y-1.2228
X2.2225 Y-1.3577
Y-1.4027
X2.2235 Y-1.4123
X2.2261 Y-1.4215
X2.2302 Y-1.4303
X2.3151 Y-1.5773
G03 X2.3423 Y-1.5839 I0.017 J0.0106
X2.3516 Y-1.5623 I-0.0102 J0.0172 F100.
G01 X2.3356 Y-0.5931
X2.3186 Y-0.4602
X2.2942 Y-0.359
X2.2563 Y-0.2578
X2.2193 Y-0.1903
X2.156 Y-0.1111
X2.0886 Y-0.0522
X2.019 Y-0.0139
X1.9422 Y0.0122
X1.4537 Y0.1246
G03 X1.3773 Y0.0644 I-0.0142 J-0.0607
X1.3846 Y0.0346 I0.0623 J-0.0004 F25.
G01 X1.4171 Y-0.0216
X1.4232 Y-0.0311
X1.4271 Y-0.0365
X1.4316 Y-0.0422
X1.4371 Y-0.0485
X1.4432 Y-0.0547
X1.4507 Y-0.0619
X1.4589 Y-0.0688
X1.4689 Y-0.0765
X1.4799 Y-0.0842
X1.4931 Y-0.0924
X1.5082 Y-0.1009
X1.5254 Y-0.1094
X1.5458 Y-0.1184
X1.5694 Y-0.1274
X1.5969 Y-0.1364
X1.6307 Y-0.1456
X1.6726 Y-0.1549
X1.717 Y-0.1625
X1.7615 Y-0.1687
X1.8058 Y-0.1762
X1.8492 Y-0.1881
X1.8906 Y-0.2057
X1.9292 Y-0.2287
X1.9643 Y-0.2567
X1.9956 Y-0.2891
X2.0228 Y-0.3248
X2.0462 Y-0.3632
X2.0659 Y-0.4037
X2.0823 Y-0.4455
X2.0958 Y-0.4884
X2.1067 Y-0.532
X2.1155 Y-0.5761
X2.1225 Y-0.6206
X2.1281 Y-0.6652
X2.1324 Y-0.7099
X2.1358 Y-0.7548
X2.1385 Y-0.7996
X2.1406 Y-0.8446
X2.1422 Y-0.8895
X2.1434 Y-0.9344
X2.1444 Y-0.9794
X2.1451 Y-1.0244
X2.1457 Y-1.0693
X2.1461 Y-1.1143
X2.1465 Y-1.1592
X2.1467 Y-1.2042
X2.147 Y-1.2517
X2.1481 Y-1.2685
X2.1515 Y-1.2851
X2.1569 Y-1.301
X2.1644 Y-1.3162
X2.2302 Y-1.4303
G03 X2.2574 Y-1.4369 I0.017 J0.0106
X2.2669 Y-1.4161 I-0.0102 J0.0172 F100.
G01 X2.2621 Y-0.7076
X2.2437 Y-0.5614
X2.2171 Y-0.4377
X2.1781 Y-0.3365
X2.1335 Y-0.2568
X2.0886 Y-0.2001
X2.0323 Y-0.1453
X1.9876 Y-0.1113
X1.9427 Y-0.0871
X1.4935 Y0.0662
G03 X1.4098 Y0.0081 I-0.0214 J-0.0585
X1.4171 Y-0.0216 I0.0623 J-0.0005 F25.
G01 X1.456 Y-0.0891
X1.461 Y-0.0967
X1.4652 Y-0.1026
X1.4699 Y-0.1086
X1.4757 Y-0.1152
X1.4824 Y-0.1221
X1.4901 Y-0.1293
X1.4992 Y-0.1371
X1.5094 Y-0.1449
X1.5218 Y-0.1535
X1.5351 Y-0.1618
X1.5519 Y-0.1712
X1.5695 Y-0.18
X1.5916 Y-0.1897
X1.6168 Y-0.1993
X1.6596 Y-0.2133
X1.7029 Y-0.2253
X1.7458 Y-0.2387
X1.7874 Y-0.2558
X1.8268 Y-0.2775
X1.8633 Y-0.3037
X1.8964 Y-0.3341
X1.9259 Y-0.3681
X1.9516 Y-0.405
X1.9736 Y-0.4442
X1.9924 Y-0.4851
X2.008 Y-0.5272
X2.0209 Y-0.5703
X2.0315 Y-0.614
X2.0401 Y-0.6581
X2.047 Y-0.7026
X2.0525 Y-0.7472
X2.0569 Y-0.7919
X2.0603 Y-0.8368
X2.063 Y-0.8817
X2.0651 Y-0.9266
X2.0668 Y-0.9715
X2.0681 Y-1.0165
X2.0691 Y-1.0614
X2.0699 Y-1.1064
X2.0701 Y-1.1199
X2.0714 Y-1.1364
X2.0748 Y-1.1526
X2.0802 Y-1.1682
X2.0875 Y-1.183
X2.1644 Y-1.3162
G03 X2.1915 Y-1.3228 I0.017 J0.0106
X2.2012 Y-1.3036 I-0.0102 J0.0172 F100.
G01 X2.1769 Y-0.6963
X2.1599 Y-0.5951
X2.1271 Y-0.4714
X2.0877 Y-0.3815
X2.0544 Y-0.3252
X2.0115 Y-0.269
X1.9691 Y-0.224
X1.8966 Y-0.1678
X1.5384 Y-0.0039
G03 X1.4487 Y-0.0593 I-0.0274 J-0.056
X1.456 Y-0.0891 I0.0623 J-0.0005 F25.
G01 X1.495 Y-0.1565
X1.5007 Y-0.1654
X1.5049 Y-0.1712
X1.5101 Y-0.1778
X1.5158 Y-0.1843
X1.523 Y-0.1918
X1.5308 Y-0.1991
X1.5405 Y-0.2074
X1.5523 Y-0.2164
X1.5654 Y-0.2256
X1.5831 Y-0.2366
X1.6167 Y-0.2554
X1.6569 Y-0.2755
X1.6968 Y-0.2962
X1.7352 Y-0.3196
X1.7713 Y-0.3464
X1.8046 Y-0.3766
X1.8347 Y-0.41
X1.8614 Y-0.4462
X1.8848 Y-0.4846
X1.9049 Y-0.5248
X1.922 Y-0.5664
X1.9363 Y-0.609
X1.9482 Y-0.6524
X1.9581 Y-0.6963
X1.9661 Y-0.7405
X1.9726 Y-0.785
X1.9778 Y-0.8297
X1.982 Y-0.8744
X1.9853 Y-0.9193
X1.988 Y-0.9641
X1.9889 Y-0.9831
X1.9905 Y-0.9985
X1.994 Y-1.0136
X1.9992 Y-1.0282
X2.0061 Y-1.042
X2.0875 Y-1.183
G03 X2.1146 Y-1.1896 I0.017 J0.0106
X2.1241 Y-1.1687 I-0.0102 J0.0172 F100.
G01 X2.0809 Y-0.6514
X2.0413 Y-0.5164
X1.995 Y-0.4152
X1.9539 Y-0.3516
X1.8807 Y-0.269
X1.8416 Y-0.2389
X1.5834 Y-0.0747
G03 X1.4877 Y-0.1268 I-0.0334 J-0.0526
X1.495 Y-0.1565 I0.0623 J-0.0005 F25.
G01 X1.5384 Y-0.2318
X1.5429 Y-0.2387
X1.548 Y-0.2458
X1.5545 Y-0.2541
X1.5635 Y-0.2643
X1.5759 Y-0.2772
X1.6039 Y-0.3034
X1.6381 Y-0.3325
X1.6721 Y-0.362
X1.7046 Y-0.3931
X1.7349 Y-0.4263
X1.7626 Y-0.4617
X1.7875 Y-0.4991
X1.8095 Y-0.5383
X1.8287 Y-0.579
X1.8451 Y-0.6208
X1.8592 Y-0.6636
X1.871 Y-0.707
X1.8808 Y-0.7508
X1.8889 Y-0.7951
X1.8942 Y-0.8301
X1.8976 Y-0.8459
X1.9029 Y-0.8612
X1.9101 Y-0.8757
X2.0061 Y-1.042
G03 X2.0332 Y-1.0486 I0.017 J0.0106
X2.0429 Y-1.0337 I-0.0102 J0.0172 F100.
G01 X2.0556 Y-0.8875
X1.9998 Y-0.6851
X1.9613 Y-0.5614
X1.9202 Y-0.4678
X1.8638 Y-0.3815
X1.6354 Y-0.1565
G03 X1.5311 Y-0.2021 I-0.042 J-0.046
X1.5384 Y-0.2318 I0.0623 J-0.0005 F25.
G01 X1.9101 Y-0.8757
X1.9202 Y-0.8839
X1.9379 Y-0.8867
X2.0325 Y-0.9013 F100.
G02 X2.0999 Y-0.9437 I-0.0143 J-0.0974
G01 X2.5661 Y-1.7535
X2.589 Y-1.8097
X2.6062 Y-1.8884
X2.6083 Y-1.9334
X2.5973 Y-2.0121
X2.5714 Y-2.0968
G02 X2.5486 Y-2.1358 I-0.0941 J0.0288
G01 X2.4549 Y-2.2258
X2.3995 Y-2.2596
X2.3581 Y-2.2769
X2.2683 Y-2.2954
X0.1124 Y-2.296
X-0.0223 Y-2.277
X-0.0871 Y-2.2466
X-0.1346 Y-2.2124
X-0.1907 Y-2.1561
X-0.2311 Y-2.0958
X-0.243 Y-2.0684
G02 X-0.2019 Y-1.9418 I0.0895 J0.0409
G01 X-0.1673 Y-1.9222
G03 X-0.1534 Y-1.9115 I-0.0307 J0.0542
X-0.138 Y-1.885 I-0.0445 J0.0436 F25.
G01 X-0.1333 Y-1.8659
X-0.1303 Y-1.8547
X-0.127 Y-1.8434
X-0.1233 Y-1.832
X-0.1182 Y-1.821
X-0.107 Y-1.7985
X-0.1009 Y-1.7879
X-0.0926 Y-1.7717
X-0.0874 Y-1.7602
X-0.0817 Y-1.7459
X-0.0758 Y-1.7284
X-0.0695 Y-1.7064
X-0.0629 Y-1.6785
X-0.0561 Y-1.6412
X-0.0502 Y-1.5967
X-0.046 Y-1.5519
X-0.0432 Y-1.507
X-0.0411 Y-1.4621
X-0.0397 Y-1.4172
X-0.0387 Y-1.3722
X-0.038 Y-1.3273
X-0.0375 Y-1.2823
X-0.0372 Y-1.2373
X-0.0369 Y-1.1924
X-0.0368 Y-1.1474
X-0.0366 Y-1.0575
Y-0.9226
X-0.0368 Y-0.6528
X-0.0371 Y-0.2931
X-0.0366 Y-0.2481
X-0.0271 Y-0.2042
X-0.0089 Y-0.1631
X0.0167 Y-0.1261
X0.048 Y-0.0939
X0.0837 Y-0.0665
X0.1226 Y-0.0439
X0.1636 Y-0.0255
X0.2062 Y-0.0109
X0.2496 Y0.0006
X0.2937 Y0.0094
X0.3382 Y0.0162
X0.3828 Y0.0214
X0.4276 Y0.0252
X0.4725 Y0.0281
X0.5174 Y0.0303
X0.5624 Y0.0318
X0.6073 Y0.033
X0.6523 Y0.0339
X0.6972 Y0.0345
X0.7422 Y0.035
X0.7871 Y0.0353
X0.8771 Y0.0359
X0.8917 Y0.0365
X0.9093 Y0.0384
X0.9264 Y0.0427
X0.9428 Y0.0493
X0.9582 Y0.058
X0.9722 Y0.0687
X0.9846 Y0.0813
X0.9883 Y0.0854
X0.9932 Y0.0909
X0.9995 Y0.0969
X1.0219 Y0.118
X1.0264 Y0.1215
X1.0309 Y0.1246
X1.042 Y0.1317
G03 X1.0474 Y0.1591 I-0.0114 J0.0165
X1.0332 Y0.168 I-0.0167 J-0.0109 F100.
G01 X0.3707 Y0.1504
X0.2472 Y0.1323
X0.1648 Y0.1134
X0.0987 Y0.088
X0.0114 Y0.0414
X-0.0489 Y-0.0061
X-0.0897 Y-0.0527
X-0.1233 Y-0.1021
X-0.1472 Y-0.1565
X-0.1593 Y-0.2015
X-0.1672 Y-0.2578
X-0.216 Y-1.7535
G03 X-0.1233 Y-1.8093 I0.0623 J-0.0014
G01 X-0.1009 Y-1.7879 F25.
X-0.0335 Y-1.6712
X-0.023 Y-1.6507
X-0.0171 Y-1.6376
X-0.0106 Y-1.6212
X-0.0041 Y-1.602
X0.0029 Y-1.5777
X0.0101 Y-1.547
X0.0174 Y-1.5068
X0.0234 Y-1.4622
X0.0276 Y-1.4174
X0.0307 Y-1.3726
X0.0329 Y-1.3277
X0.0345 Y-1.2827
X0.0356 Y-1.2378
X0.0364 Y-1.1928
X0.037 Y-1.1479
X0.0374 Y-1.1029
X0.0377 Y-1.0579
X0.0379 Y-1.013
X0.0381 Y-0.968
X0.0382 Y-0.8781
Y-0.7432
X0.0381 Y-0.4734
X0.038 Y-0.4285
Y-0.3835
X0.042 Y-0.3387
X0.0535 Y-0.2952
X0.0724 Y-0.2544
X0.0978 Y-0.2173
X0.1285 Y-0.1845
X0.1634 Y-0.1562
X0.2015 Y-0.1322
X0.2418 Y-0.1124
X0.2838 Y-0.0962
X0.3268 Y-0.0832
X0.3706 Y-0.0729
X0.4148 Y-0.0648
X0.4593 Y-0.0586
X0.5041 Y-0.0537
X0.5489 Y-0.05
X0.5937 Y-0.0472
X0.6387 Y-0.0451
X0.6836 Y-0.0435
X0.7285 Y-0.0423
X0.7735 Y-0.0413
X0.8131 Y-0.0398
X0.838 Y-0.0377
X0.8522 Y-0.0358
X0.8715 Y-0.0317
X0.89 Y-0.0247
X0.9072 Y-0.015
X0.9227 Y-0.0028
X0.9362 Y0.0116
X0.9473 Y0.0279
X0.9546 Y0.0404
X0.9578 Y0.0459
X0.9649 Y0.0571
X0.9658 Y0.0585
X0.9735 Y0.0684
X0.9846 Y0.0813
G03 X0.982 Y0.1091 I-0.0156 J0.0126
X0.9658 Y0.1136 I-0.0129 J-0.0153 F100.
G01 X0.337 Y0.0538
X0.2472 Y0.0285
X0.1686 Y-0.0034
X0.09 Y-0.0488
X0.022 Y-0.1064
X-0.0335 Y-0.1791
X-0.063 Y-0.2353
X-0.0802 Y-0.2915
X-0.0893 Y-0.3477
X-0.1481 Y-1.6298
G03 X-0.056 Y-1.6926 I0.0617 J-0.0084
G01 X-0.0559
X-0.0335 Y-1.6712 F25.
X0.0423 Y-1.5398
X0.05 Y-1.5248
X0.0561 Y-1.5113
X0.0628 Y-1.4945
X0.0695 Y-1.4746
X0.0767 Y-1.4496
X0.0841 Y-1.4181
X0.0917 Y-1.3767
X0.0976 Y-1.3321
X0.1019 Y-1.2873
X0.105 Y-1.2425
X0.1073 Y-1.1976
X0.109 Y-1.1526
X0.1102 Y-1.1077
X0.111 Y-1.0627
X0.1117 Y-1.0178
X0.1121 Y-0.9728
X0.1125 Y-0.9278
X0.1127 Y-0.8829
X0.1128 Y-0.8379
X0.113 Y-0.748
X0.1131 Y-0.6131
Y-0.5232
X0.1135 Y-0.4782
X0.1181 Y-0.4335
X0.1292 Y-0.3899
X0.147 Y-0.3486
X0.1711 Y-0.3107
X0.2005 Y-0.2767
X0.2342 Y-0.2469
X0.2712 Y-0.2213
X0.3107 Y-0.1998
X0.352 Y-0.1819
X0.3945 Y-0.1674
X0.4379 Y-0.1556
X0.4819 Y-0.1462
X0.5262 Y-0.1387
X0.5708 Y-0.1329
X0.6155 Y-0.1284
X0.6604 Y-0.1249
X0.7052 Y-0.1219
X0.7501 Y-0.1188
X0.7811 Y-0.1155
X0.8053 Y-0.1118
X0.8233 Y-0.1081
X0.8405 Y-0.1037
X0.8543 Y-0.0994
X0.8657 Y-0.0941
X0.876 Y-0.0869
X0.8849 Y-0.078
X0.8921 Y-0.0678
X0.9473 Y0.0279
G03 X0.9395 Y0.0547 I-0.0177 J0.0094
X0.927 Y0.0571 I-0.0098 J-0.0174 F100.
G01 X0.3946 Y-0.0328
X0.2884 Y-0.0666
X0.191 Y-0.1189
X0.1349 Y-0.1605
X0.0735 Y-0.224
X0.0226 Y-0.3091
X-0.0003 Y-0.3702
X-0.0117 Y-0.4264
X-0.0728 Y-1.5061
G03 X0.0202 Y-1.561 I0.0623 J-0.0007
X0.0338 Y-1.5506 I-0.0307 J0.0542 F25.
G01 X0.0423 Y-1.5398
X0.1124 Y-1.4184
X0.1243 Y-1.3953
X0.1304 Y-1.3817
X0.1371 Y-1.3649
X0.1439 Y-1.3448
X0.1511 Y-1.3195
X0.1586 Y-1.2877
X0.1662 Y-1.2459
X0.1722 Y-1.2013
X0.1765 Y-1.1565
X0.1796 Y-1.1117
X0.1819 Y-1.0668
X0.1836 Y-1.0218
X0.1849 Y-0.9769
X0.1858 Y-0.9319
X0.1864 Y-0.887
X0.1869 Y-0.842
X0.1873 Y-0.7971
X0.1875 Y-0.7521
X0.1877 Y-0.7071
X0.1879 Y-0.6172
X0.1887 Y-0.5722
X0.193 Y-0.5275
X0.2031 Y-0.4837
X0.2197 Y-0.4419
X0.2423 Y-0.403
X0.2703 Y-0.3678
X0.3027 Y-0.3366
X0.3386 Y-0.3096
X0.3772 Y-0.2865
X0.4178 Y-0.2671
X0.4598 Y-0.251
X0.5028 Y-0.2379
X0.5465 Y-0.2273
X0.5906 Y-0.2187
X0.635 Y-0.2117
X0.6795 Y-0.2054
X0.724 Y-0.1989
X0.7626 Y-0.1923
X0.7731 Y-0.1899
X0.7902 Y-0.1848
X0.8065 Y-0.1774
X0.8216 Y-0.1678
X0.8353 Y-0.1563
X0.8473 Y-0.1429
X0.8573 Y-0.1281
X0.8921 Y-0.0678
X0.8942 Y-0.0553
X0.8872 Y-0.043
X0.8834 Y-0.0414
X0.876 Y-0.0384 F100.
X0.4156 Y-0.1273
X0.3146 Y-0.1721
X0.2505 Y-0.2128
X0.1793 Y-0.2745
X0.1235 Y-0.3477
X0.0938 Y-0.404
X0.0755 Y-0.4602
X0.0658 Y-0.5052
X-0.0026 Y-1.3824
G03 X0.09 Y-1.4397 I0.0622 J-0.003
G01 X0.0901
X0.1124 Y-1.4184 F25.
X0.191 Y-1.2822
X0.1986 Y-1.2675
X0.2048 Y-1.2537
X0.2115 Y-1.2368
X0.2184 Y-1.2165
X0.2257 Y-1.191
X0.2332 Y-1.159
X0.2409 Y-1.1169
X0.2469 Y-1.0723
X0.2512 Y-1.0275
X0.2543 Y-0.9827
X0.2567 Y-0.9378
X0.2584 Y-0.8929
X0.2596 Y-0.8479
X0.2606 Y-0.803
X0.2612 Y-0.758
X0.2618 Y-0.713
X0.2628 Y-0.6681
X0.2665 Y-0.6233
X0.2753 Y-0.5792
X0.2902 Y-0.5367
X0.311 Y-0.4969
X0.3372 Y-0.4603
X0.368 Y-0.4276
X0.4025 Y-0.3988
X0.44 Y-0.374
X0.4798 Y-0.3529
X0.5211 Y-0.3352
X0.5635 Y-0.3204
X0.6067 Y-0.3077
X0.6502 Y-0.2966
X0.694 Y-0.2861
X0.7256 Y-0.2775
X0.734 Y-0.2748
X0.7516 Y-0.2676
X0.768 Y-0.2579
X0.7828 Y-0.2459
X0.7957 Y-0.2319
X0.8064 Y-0.2161
X0.8573 Y-0.1281
G03 X0.8494 Y-0.1013 I-0.0177 J0.0094
X0.8318 Y-0.1003 I-0.0098 J-0.0174 F100.
G01 X0.4175 Y-0.2384
X0.3595 Y-0.2707
X0.2864 Y-0.3252
X0.2264 Y-0.3927
X0.1892 Y-0.4489
X0.1676 Y-0.4939
X0.1595 Y-0.5164
G03 X0.1574 Y-0.5228 I0.0923 J-0.0342
G01 X0.1398 Y-0.5951
X0.0759 Y-1.2474
G03 X0.1685 Y-1.3036 I0.0623 J-0.0018
G01 X0.1686 Y-1.3035
X0.191 Y-1.2822 F25.
X0.2631 Y-1.1574
X0.2733 Y-1.1374
X0.2796 Y-1.1236
X0.2863 Y-1.1066
X0.2932 Y-1.0864
X0.3005 Y-1.0609
X0.308 Y-1.0288
X0.3157 Y-0.9866
X0.3217 Y-0.942
X0.326 Y-0.8973
X0.3292 Y-0.8524
X0.3315 Y-0.8075
X0.3338 Y-0.7626
X0.3376 Y-0.7178
X0.3456 Y-0.6736
X0.3589 Y-0.6306
X0.3781 Y-0.5899
X0.4026 Y-0.5523
X0.4319 Y-0.5181
X0.465 Y-0.4878
X0.5013 Y-0.4612
X0.5398 Y-0.438
X0.5801 Y-0.4179
X0.6214 Y-0.4001
X0.6631 Y-0.3835
X0.6835 Y-0.3751
X0.6988 Y-0.3676
X0.713 Y-0.3582
X0.7258 Y-0.347
X0.737 Y-0.3342
X0.7465 Y-0.32
X0.8064 Y-0.2161
G03 X0.7986 Y-0.1893 I-0.0177 J0.0094
X0.7774 Y-0.1903 I-0.0098 J-0.0174 F100.
G01 X0.4268 Y-0.3539
X0.3707 Y-0.3971
X0.3093 Y-0.4602
X0.2566 Y-0.5389
X0.2259 Y-0.6176
X0.2133 Y-0.6739
X0.1491 Y-1.1125
G03 X0.1574 Y-1.1574 I0.0611 J-0.012
X0.241 Y-1.1786 I0.0528 J0.033
X0.2584 Y-1.1639 I-0.0307 J0.0542 F25.
G01 X0.2631 Y-1.1574
X0.337 Y-1.0293
X0.3481 Y-1.0077
X0.3543 Y-0.9939
X0.361 Y-0.9769
X0.368 Y-0.9565
X0.3754 Y-0.9306
X0.3838 Y-0.8945
X0.392 Y-0.8503
X0.3994 Y-0.8059
X0.409 Y-0.762
X0.4228 Y-0.7192
X0.4417 Y-0.6784
X0.4655 Y-0.6403
X0.4937 Y-0.6052
X0.5256 Y-0.5735
X0.5604 Y-0.5451
X0.5972 Y-0.5193
X0.6237 Y-0.5026
X0.6365 Y-0.4935
X0.6481 Y-0.4828
X0.6583 Y-0.4708
X0.667 Y-0.4577
X0.7465 Y-0.32
G03 X0.7386 Y-0.2932 I-0.0177 J0.0094
X0.7188 Y-0.2933 I-0.0098 J-0.0174 F100.
G01 X0.4433 Y-0.4714
X0.3795 Y-0.5389
X0.337 Y-0.5984
X0.3033 Y-0.6697
X0.2247 Y-0.9776
G03 X0.3146 Y-1.0507 I0.0594 J-0.0187
G01 X0.337 Y-1.0293 F25.
X0.4189 Y-0.8875
X0.4394 Y-0.8475
X0.46 Y-0.8076
X0.4822 Y-0.7685
X0.5072 Y-0.7311
X0.5081 Y-0.73
X0.5121 Y-0.7248
X0.5157 Y-0.7194
X0.5191 Y-0.7139
G03 X0.5113 Y-0.687 I-0.0177 J0.0094
X0.4841 Y-0.6945 I-0.0098 J-0.0174 F100.
G01 X0.3846 Y-0.8669
G03 X0.3917 Y-0.8942 I0.0173 J-0.01
X0.4189 Y-0.8875 I0.0102 J0.0172 F25.
G01 X0.667 Y-0.4577
G03 X0.6693 Y-0.4471 I-0.0177 J0.0094
G01 X0.6686 Y-0.4445 Z0.3356
X0.668 Y-0.442 Z0.3361
X0.6673 Y-0.4395 Z0.337
X0.6656 Y-0.4372 Z0.3386
X0.664 Y-0.4351 Z0.3407
X0.6626 Y-0.4333 Z0.3431
X0.6611 Y-0.4322 Z0.3459
X0.6601 Y-0.4315 Z0.3489
X0.6594 Y-0.431 Z0.3521
X0.6592 Y-0.4308 Z0.3554
G00 Z1.2
X1.1653 Y-1.1303
Z1.02
G03 X1.1705 Y-1.4865 Z0.9809 I0.0026 J-0.1781 F10.
X1.1653 Y-1.1303 Z0.9417 I-0.0026 J0.1781
X1.1705 Y-1.4865 Z0.9026 I0.0026 J-0.1781
X1.1653 Y-1.1303 Z0.8635 I-0.0026 J0.1781
X1.1705 Y-1.4865 Z0.8243 I0.0026 J-0.1781
X1.1653 Y-1.1303 Z0.7852 I-0.0026 J0.1781
X1.1705 Y-1.4865 Z0.7461 I0.0026 J-0.1781
X1.1653 Y-1.1303 Z0.707 I-0.0026 J0.1781
X1.1705 Y-1.4865 Z0.6678 I0.0026 J-0.1781
X1.1653 Y-1.1303 Z0.6287 I-0.0026 J0.1781
X1.1705 Y-1.4865 Z0.5896 I0.0026 J-0.1781
X1.1653 Y-1.1303 Z0.5504 I-0.0026 J0.1781
X1.1705 Y-1.4865 Z0.5113 I0.0026 J-0.1781
X1.1653 Y-1.1303 Z0.4722 I-0.0026 J0.1781
X1.1705 Y-1.4865 Z0.433 I0.0026 J-0.1781
X1.1653 Y-1.1303 Z0.3939 I-0.0026 J0.1781
X1.1705 Y-1.4865 Z0.3548 I0.0026 J-0.1781
X1.346 Y-1.3084 Z0.3354 I-0.0026 J0.1781
X0.9898 I-0.1781
X1.346 I0.1781
G01 X1.3467 Y-1.2634 F25.
X1.3484 Y-1.2581
X1.3497 Y-1.2522
X1.3504 Y-1.2462
X1.3507 Y-1.2403
X1.3505 Y-1.2343
X1.35 Y-1.2283
X1.3491 Y-1.2223
X1.3479 Y-1.2165
X1.3464 Y-1.2106
X1.3445 Y-1.2045
X1.3423 Y-1.1983
X1.3396 Y-1.1919
X1.3365 Y-1.1855
X1.333 Y-1.1789
X1.3291 Y-1.1724
X1.3247 Y-1.1659
X1.3198 Y-1.1594
X1.3145 Y-1.153
X1.3088 Y-1.1467
X1.3027 Y-1.1405
X1.2961 Y-1.1346
X1.2891 Y-1.1288
X1.2818 Y-1.1234
X1.274 Y-1.1182
X1.2659 Y-1.1133
X1.2574 Y-1.1088
X1.2487 Y-1.1046
X1.2396 Y-1.1008
X1.2303 Y-1.0975
X1.2208 Y-1.0945
X1.211 Y-1.0921
X1.2011 Y-1.09
X1.191 Y-1.0885
X1.1808 Y-1.0874
X1.1705 Y-1.0869
X1.1601 Y-1.0868
X1.1497 Y-1.0873
X1.1392 Y-1.0882
X1.1288 Y-1.0897
X1.1185 Y-1.0917
X1.1082 Y-1.0942
X1.098 Y-1.0972
X1.088 Y-1.1007
X1.0781 Y-1.1047
X1.0684 Y-1.1091
X1.0589 Y-1.1141
X1.0496 Y-1.1195
X1.0407 Y-1.1254
X1.032 Y-1.1317
X1.0236 Y-1.1384
X1.0155 Y-1.1455
X1.0078 Y-1.1531
X1.0004 Y-1.161
X0.9935 Y-1.1692
X0.9869 Y-1.1778
X0.9808 Y-1.1867
X0.9751 Y-1.1959
X0.9699 Y-1.2054
X0.9651 Y-1.2151
X0.9608 Y-1.225
X0.957 Y-1.2352
X0.9537 Y-1.2455
X0.9508 Y-1.256
X0.9485 Y-1.2666
X0.9468 Y-1.2773
X0.9455 Y-1.2881
X0.9448 Y-1.2989
X0.9446 Y-1.3098
X0.9449 Y-1.3206
X0.9458 Y-1.3314
X0.9471 Y-1.3422
X0.949 Y-1.3529
X0.9515 Y-1.3635
X0.9544 Y-1.374
X0.9578 Y-1.3843
X0.9618 Y-1.3944
X0.9662 Y-1.4043
X0.9711 Y-1.414
X0.9765 Y-1.4235
X0.9823 Y-1.4326
X0.9885 Y-1.4415
X0.9952 Y-1.4501
X1.0023 Y-1.4583
X1.0098 Y-1.4662
X1.0177 Y-1.4737
X1.0259 Y-1.4808
X1.0345 Y-1.4875
X1.0433 Y-1.4938
X1.0525 Y-1.4997
X1.062 Y-1.505
X1.0717 Y-1.51
X1.0816 Y-1.5144
X1.0917 Y-1.5184
X1.102 Y-1.5218
X1.1125 Y-1.5248
X1.1231 Y-1.5272
X1.1338 Y-1.5291
X1.1446 Y-1.5305
X1.1554 Y-1.5314
X1.1663 Y-1.5318
X1.1771 Y-1.5316
X1.188 Y-1.5309
X1.1988 Y-1.5296
X1.2095 Y-1.5279
X1.2201 Y-1.5256
X1.2307 Y-1.5228
X1.241 Y-1.5195
X1.2512 Y-1.5157
X1.2612 Y-1.5114
X1.271 Y-1.5066
X1.2805 Y-1.5013
X1.2897 Y-1.4956
X1.2987 Y-1.4895
X1.3074 Y-1.4829
X1.3157 Y-1.4759
X1.3237 Y-1.4685
X1.3313 Y-1.4608
X1.3385 Y-1.4526
X1.3453 Y-1.4442
X1.3517 Y-1.4354
X1.3577 Y-1.4263
X1.3632 Y-1.4169
X1.3682 Y-1.4073
X1.373 Y-1.3969
X1.38 Y-1.3797
X1.3876 Y-1.3581
X1.3927 Y-1.3408
X1.3964 Y-1.3257
X1.3991 Y-1.3118
X1.4009 Y-1.2988
X1.4021 Y-1.2865
X1.4026 Y-1.2747
Y-1.2631
X1.402 Y-1.2519
X1.4009 Y-1.2408
X1.3992 Y-1.23
X1.3971 Y-1.2193
X1.3944 Y-1.2088
X1.3913 Y-1.1985
X1.3877 Y-1.1884
X1.3835 Y-1.1785
X1.3789 Y-1.1687
X1.3738 Y-1.1591
X1.3682 Y-1.1497
X1.3621 Y-1.1406
X1.3555 Y-1.1317
X1.3484 Y-1.1231
X1.3409 Y-1.1147
X1.3329 Y-1.1067
X1.3245 Y-1.099
X1.3156 Y-1.0917
X1.3063 Y-1.0847
X1.2966 Y-1.0782
X1.2865 Y-1.0721
X1.2761 Y-1.0664
X1.2653 Y-1.0613
X1.2542 Y-1.0566
X1.2428 Y-1.0524
X1.2312 Y-1.0488
X1.2193 Y-1.0458
X1.2073 Y-1.0433
X1.195 Y-1.0414
X1.1826 Y-1.04
X1.1702 Y-1.0393
X1.1576 Y-1.0392
X1.145 Y-1.0397
X1.1324 Y-1.0408
X1.1198 Y-1.0425
X1.1073 Y-1.0449
X1.0948 Y-1.0479
X1.0825 Y-1.0515
X1.0703 Y-1.0556
X1.0584 Y-1.0604
X1.0466 Y-1.0658
X1.0351 Y-1.0718
X1.0239 Y-1.0783
X1.013 Y-1.0854
X1.0024 Y-1.093
X0.9922 Y-1.1011
X0.9824 Y-1.1097
X0.973 Y-1.1188
X0.964 Y-1.1284
X0.9555 Y-1.1384
X0.9475 Y-1.1488
X0.94 Y-1.1596
X0.9331 Y-1.1708
X0.9266 Y-1.1823
X0.9208 Y-1.1941
X0.9155 Y-1.2062
X0.9108 Y-1.2185
X0.9068 Y-1.2311
X0.9033 Y-1.2438
X0.9005 Y-1.2567
X0.8982 Y-1.2697
X0.8967 Y-1.2829
X0.8957 Y-1.2961
X0.8954 Y-1.3093
X0.8958 Y-1.3225
X0.8968 Y-1.3357
X0.8984 Y-1.3489
X0.9007 Y-1.3619
X0.9036 Y-1.3748
X0.9071 Y-1.3876
X0.9113 Y-1.4002
X0.916 Y-1.4125
X0.9214 Y-1.4247
X0.9273 Y-1.4365
X0.9339 Y-1.4481
X0.9409 Y-1.4593
X0.9485 Y-1.4702
X0.9566 Y-1.4806
X0.9653 Y-1.4907
X0.9744 Y-1.5003
X0.9839 Y-1.5095
X0.9939 Y-1.5182
X1.0044 Y-1.5265
X1.0152 Y-1.5342
X1.0263 Y-1.5413
X1.0378 Y-1.5479
X1.0496 Y-1.554
X1.0617 Y-1.5595
X1.0741 Y-1.5643
X1.0866 Y-1.5686
X1.0994 Y-1.5722
X1.1123 Y-1.5753
X1.1253 Y-1.5776
X1.1385 Y-1.5794
X1.1517 Y-1.5805
X1.165 Y-1.581
X1.1782 Y-1.5808
X1.1915 Y-1.58
X1.2047 Y-1.5785
X1.2178 Y-1.5764
X1.2308 Y-1.5736
X1.2436 Y-1.5703
X1.2563 Y-1.5663
X1.2687 Y-1.5617
X1.2809 Y-1.5565
X1.2928 Y-1.5507
X1.3045 Y-1.5443
X1.3158 Y-1.5374
X1.3268 Y-1.5299
X1.3374 Y-1.5219
X1.3476 Y-1.5134
X1.3573 Y-1.5044
X1.3667 Y-1.495
X1.3762 Y-1.4843
X1.3859 Y-1.4723
X1.3953 Y-1.4596
X1.4043 Y-1.4459
X1.4128 Y-1.4315
X1.4206 Y-1.4167
X1.4276 Y-1.4017
X1.4338 Y-1.3866
X1.4392 Y-1.3715
X1.4437 Y-1.3565
X1.4474 Y-1.3416
X1.4503 Y-1.3268
X1.4525 Y-1.3121
X1.4539 Y-1.2975
X1.4546 Y-1.2831
Y-1.2688
X1.4539 Y-1.2546
X1.4525 Y-1.2407
X1.4504 Y-1.2269
X1.4478 Y-1.2132
X1.4444 Y-1.1998
X1.4404 Y-1.1866
X1.4385 Y-1.1811
X1.4356 Y-1.1738
X1.4323 Y-1.1666
X1.4286 Y-1.1597
X1.4078 Y-1.1237
X1.4004 Y-1.1122
X1.3927 Y-1.1015
X1.3845 Y-1.0912
X1.3757 Y-1.0811
X1.3663 Y-1.0714
X1.3564 Y-1.0621
X1.346 Y-1.0532
X1.335 Y-1.0448
X1.3236 Y-1.0368
X1.3117 Y-1.0294
X1.2994 Y-1.0225
X1.2866 Y-1.0162
X1.2735 Y-1.0104
X1.2601 Y-1.0053
X1.2463 Y-1.0008
X1.2323 Y-0.9969
X1.218 Y-0.9938
X1.2035 Y-0.9913
X1.1889 Y-0.9895
X1.1741 Y-0.9884
X1.1592 Y-0.9881
X1.1442 Y-0.9885
X1.1292 Y-0.9896
X1.1143 Y-0.9914
X1.0994 Y-0.994
X1.0845 Y-0.9973
X1.0699 Y-1.0013
X1.0553 Y-1.0061
X1.041 Y-1.0116
X1.027 Y-1.0178
X1.0132 Y-1.0246
X0.9998 Y-1.0322
X0.9974 Y-1.0337
X0.9845 Y-1.0429
X0.9729 Y-1.0536
X0.9626 Y-1.0656
X0.9539 Y-1.0788
X0.879 Y-1.2086
X0.8723 Y-1.2217
X0.8681 Y-1.2308
X0.8643 Y-1.2405
X0.8608 Y-1.2509
X0.8577 Y-1.2618
X0.855 Y-1.2734
X0.8528 Y-1.2853
X0.8511 Y-1.2976
X0.8501 Y-1.3103
X0.8496 Y-1.3233
X0.8498 Y-1.3367
X0.8506 Y-1.3504
X0.8522 Y-1.3642
X0.8544 Y-1.3782
X0.8574 Y-1.3922
X0.861 Y-1.4062
X0.8654 Y-1.4201
X0.8705 Y-1.434
X0.8764 Y-1.4477
X0.8829 Y-1.4611
X0.8901 Y-1.4744
X0.8981 Y-1.4873
X0.9066 Y-1.4999
X0.9159 Y-1.5121
X0.9257 Y-1.524
X0.9362 Y-1.5353
X0.9472 Y-1.5462
X0.9588 Y-1.5566
X0.9709 Y-1.5664
X0.9834 Y-1.5756
X0.9965 Y-1.5842
X1.01 Y-1.5922
X1.0122 Y-1.5934
X1.0266 Y-1.5999
X1.0417 Y-1.6047
X1.0572 Y-1.6075
X1.073 Y-1.6085
X1.224
X1.2411 Y-1.6076
X1.2511 Y-1.6066
X1.2613 Y-1.6051
X1.2719 Y-1.603
X1.283 Y-1.6003
X1.2943 Y-1.5968
X1.3057 Y-1.5928
X1.3171 Y-1.5881
X1.3286 Y-1.5827
X1.3402 Y-1.5765
X1.352 Y-1.5695
X1.364 Y-1.5616
X1.3758 Y-1.5528
X1.3875 Y-1.5433
X1.399 Y-1.533
X1.4104 Y-1.5217
X1.4215 Y-1.5096
X1.4322 Y-1.4967
X1.4425 Y-1.4831
X1.4522 Y-1.4688
X1.4612 Y-1.454
X1.4695 Y-1.4387
X1.4771 Y-1.423
X1.4839 Y-1.407
X1.4898 Y-1.3907
X1.495 Y-1.3742
X1.4994 Y-1.3576
X1.5008 Y-1.3509
X1.5033 Y-1.3321
X1.503 Y-1.3132
X1.5 Y-1.2945
X1.4944 Y-1.2764
X1.4861 Y-1.2593
X1.4286 Y-1.1597
X1.4285 Y-1.1595
G02 X1.4226 Y-1.1522 I0.0815 J0.0709
X1.4215 Y-1.1504 I0.0162 J0.0118
G01 X1.4123 Y-1.1345
G02 X1.4113 Y-1.1326 I0.0173 J0.01
X1.4079 Y-1.1238 I0.0987 J0.0439
G01 X1.4078 Y-1.1237
X1.3588 Y-1.0388
X1.3529 Y-1.0297
X1.3488 Y-1.024
X1.3443 Y-1.0182
X1.339 Y-1.0122
X1.333 Y-1.006
X1.3265 Y-0.9999
X1.3192 Y-0.9937
X1.3111 Y-0.9874
X1.3024 Y-0.9814
X1.293 Y-0.9755
X1.2827 Y-0.9698
X1.2717 Y-0.9643
X1.26 Y-0.9592
X1.2479 Y-0.9545
X1.235 Y-0.9503
X1.2215 Y-0.9466
X1.2074 Y-0.9435
X1.1928 Y-0.941
X1.1777 Y-0.9392
X1.1623 Y-0.9381
X1.1466 Y-0.9377
X1.1307 Y-0.9381
X1.1146 Y-0.9393
X1.0983 Y-0.9413
X1.0819 Y-0.9441
X1.0799 Y-0.9446
X1.0627 Y-0.9496
X1.0464 Y-0.9571
X1.0313 Y-0.9666
X1.0176 Y-0.9782
X1.0057 Y-0.9915
X0.9957 Y-1.0064
X0.9539 Y-1.0788
G03 X0.9617 Y-1.1056 I0.0177 J-0.0094
X0.9737 Y-1.1081 I0.0098 J0.0174 F100.
G01 X1.3433 Y-1.068
G03 X1.3509 Y-1.0656 I-0.0022 J0.0199
X1.3588 Y-1.0388 I-0.0098 J0.0174 F25.
G01 X1.3234 Y-0.9775
X1.3184 Y-0.9697
X1.3149 Y-0.9649
X1.3111 Y-0.9601
X1.3067 Y-0.9551
X1.3017 Y-0.9499
X1.2962 Y-0.9447
X1.2898 Y-0.9393
X1.2828 Y-0.934
X1.2753 Y-0.9287
X1.2668 Y-0.9234
X1.2575 Y-0.9183
X1.2478 Y-0.9134
X1.2371 Y-0.9088
X1.2255 Y-0.9044
X1.2133 Y-0.9004
X1.2006 Y-0.897
X1.187 Y-0.894
X1.1727 Y-0.8915
X1.1601 Y-0.89
X1.1466 Y-0.8891
X1.135 Y-0.8888
X1.1162 Y-0.8907
X1.0979 Y-0.8953
X1.0804 Y-0.9025
X1.0642 Y-0.9121
X1.0496 Y-0.9241
X1.0368 Y-0.938
X1.0262 Y-0.9536
X0.9957 Y-1.0064
G03 X1.0035 Y-1.0332 I0.0177 J-0.0094
X1.0153 Y-1.0357 I0.0098 J0.0174 F100.
G01 X1.3077 Y-1.0068
G03 X1.3156 Y-1.0043 I-0.002 J0.0199
X1.3234 Y-0.9775 I-0.0098 J0.0174 F25.
G01 X1.2914 Y-0.922
X1.2878 Y-0.9164
X1.2843 Y-0.9116
X1.2805 Y-0.9069
X1.2764 Y-0.9023
X1.2717 Y-0.8975
X1.2663 Y-0.8926
X1.2605 Y-0.8877
X1.2539 Y-0.8827
X1.2466 Y-0.8777
X1.2388 Y-0.8729
X1.2304 Y-0.8683
X1.2213 Y-0.8639
X1.2132 Y-0.8604
X1.2039 Y-0.857
X1.1948 Y-0.8541
X1.1866 Y-0.8519
X1.1771 Y-0.8499
X1.1682 Y-0.8484
X1.1598 Y-0.8475
X1.142 Y-0.8478
X1.1244 Y-0.8509
X1.1075 Y-0.8567
X1.0917 Y-0.8652
X1.0775 Y-0.876
X1.0651 Y-0.889
X1.055 Y-0.9037
G03 X1.0628 Y-0.9305 I0.0177 J-0.0094
X1.0708 Y-0.933 I0.0098 J0.0174 F100.
G01 X1.2719 Y-0.9514
G03 X1.2836 Y-0.9489 I0.0018 J0.0199
X1.2914 Y-0.922 I-0.0098 J0.0174 F25.
G01 X1.263 Y-0.8729
X1.2589 Y-0.8664
X1.2554 Y-0.8615
X1.2516 Y-0.8569
X1.2475 Y-0.8525
X1.2432 Y-0.8483
X1.2386 Y-0.8441
X1.2335 Y-0.8401
X1.2284 Y-0.8363
X1.2234 Y-0.8331
X1.2174 Y-0.8296
X1.2113 Y-0.8264
X1.2057 Y-0.8238
X1.1996 Y-0.8213
X1.1927 Y-0.8189
X1.1913 Y-0.8185
X1.1752 Y-0.8152
X1.1588 Y-0.8146
X1.1425 Y-0.8167
X1.1268 Y-0.8215
X1.1122 Y-0.8288
X1.0989 Y-0.8385
X1.0874 Y-0.8502
X1.0781 Y-0.8637
G03 X1.0859 Y-0.8905 I0.0177 J-0.0094
X1.0945 Y-0.893 I0.0098 J0.0174 F100.
G01 X1.2442 Y-0.9022
G03 X1.2552 Y-0.8997 I0.0012 J0.02
X1.263 Y-0.8729 I-0.0098 J0.0174 F25.
G01 X1.237 Y-0.8277
X1.2337 Y-0.8227
X1.23 Y-0.8179
X1.226 Y-0.8135
X1.2216 Y-0.8094
X1.217 Y-0.8056
X1.2121 Y-0.8021
X1.1989 Y-0.7956
X1.1848 Y-0.7914
X1.1702 Y-0.7898
X1.1555 Y-0.7909
X1.1412 Y-0.7945
X1.1278 Y-0.8005
X1.1157 Y-0.8089
X1.1052 Y-0.8193
X1.0968 Y-0.8313
G03 X1.1046 Y-0.8581 I0.0177 J-0.0094
X1.1151 Y-0.8607 I0.0098 J0.0174 F100.
G01 X1.22 Y-0.8571
G03 X1.2291 Y-0.8545 I-0.0007 J0.02
X1.237 Y-0.8277 I-0.0098 J0.0174 F25.
G01 X1.2196 Y-0.7976
X1.2163 Y-0.7925
X1.2125 Y-0.7879
X1.2082 Y-0.7837
X1.1966 Y-0.7765
X1.1838 Y-0.7719
X1.1703 Y-0.7702
X1.1568 Y-0.7713
X1.1437 Y-0.7753
X1.1319 Y-0.782
X1.1217 Y-0.791
X1.1137 Y-0.802
G03 X1.1215 Y-0.8288 I0.0177 J-0.0094
X1.1326 Y-0.8313 I0.0098 J0.0174 F100.
G01 X1.2032 Y-0.8269
G03 X1.2117 Y-0.8244 I-0.0013 J0.02
X1.2196 Y-0.7976 I-0.0098 J0.0174 F25.
G01 X1.2066 Y-0.7751
X1.2033 Y-0.77
X1.1993 Y-0.7656
X1.1893 Y-0.7592
X1.178 Y-0.7555
X1.1662 Y-0.7546
X1.1545 Y-0.7567
X1.1437 Y-0.7616
X1.1344 Y-0.7691
X1.1272 Y-0.7785
G03 X1.1351 Y-0.8053 I0.0177 J-0.0094
X1.1465 Y-0.8078 I0.0098 J0.0174 F100.
G01 X1.1905 Y-0.8044
G03 X1.1987 Y-0.8019 I-0.0016 J0.0199
X1.2066 Y-0.7751 I-0.0098 J0.0174 F25.
G01 X1.2001 Y-0.7638
X1.1983 Y-0.7611
X1.1962 Y-0.7584
X1.1933 Y-0.7555
X1.1904 Y-0.7531
X1.1897 Y-0.7526
X1.1844 Y-0.7494
X1.1791 Y-0.7473
X1.1735 Y-0.746
X1.1679 Y-0.7456
X1.1623 Y-0.746
X1.1567 Y-0.7473
X1.1514 Y-0.7494
X1.1461 Y-0.7526
X1.1454 Y-0.7531
X1.1425 Y-0.7555
X1.1396 Y-0.7584
X1.1375 Y-0.7611
X1.1357 Y-0.7638
X1.0262 Y-0.9536
G03 X1.0246 Y-0.9686 I0.0177 J-0.0094
G01 X1.0289 Y-0.9835
X1.2039 Y-1.5885 F100.
X1.2055 Y-1.5941 F25.
G03 X1.224 Y-1.6085 I0.0192 J0.0056
G01 X1.3139
X1.3249 Y-1.6079
X1.3314 Y-1.6073
X1.3385 Y-1.6062
X1.3458 Y-1.6048
X1.354 Y-1.6027
X1.3624 Y-1.6002
X1.3712 Y-1.5971
X1.3807 Y-1.5932
X1.3903 Y-1.5887
X1.4002 Y-1.5834
X1.4107 Y-1.5771
X1.4213 Y-1.5701
X1.4319 Y-1.5623
X1.4427 Y-1.5535
X1.4536 Y-1.5437
X1.4645 Y-1.533
X1.475 Y-1.5214
X1.4853 Y-1.5091
X1.4952 Y-1.4959
X1.5048 Y-1.4818
X1.5138 Y-1.4669
X1.5212 Y-1.4533
X1.5282 Y-1.4389
X1.529 Y-1.437
X1.5346 Y-1.4208
X1.5381 Y-1.404
X1.5393 Y-1.3869
X1.5383 Y-1.3698
X1.535 Y-1.353
X1.5295 Y-1.3367
X1.5219 Y-1.3213
X1.4861 Y-1.2593
G03 X1.459 Y-1.2527 I-0.017 J-0.0106
X1.4512 Y-1.2612 I0.0102 J-0.0172 F100.
G01 X1.2966 Y-1.5798
G03 X1.2946 Y-1.5883 I0.018 J-0.0087
X1.3139 Y-1.6085 I0.02 J-0.0002 F25.
G01 X1.3874
X1.3934 Y-1.6082
X1.3994 Y-1.6076
X1.4055 Y-1.6066
X1.4123 Y-1.6052
X1.4195 Y-1.6034
X1.427 Y-1.601
X1.4353 Y-1.5981
X1.4436 Y-1.5946
X1.4524 Y-1.5903
X1.4618 Y-1.5853
X1.4711 Y-1.5797
X1.4808 Y-1.5731
X1.4909 Y-1.5656
X1.501 Y-1.5573
X1.5109 Y-1.5483
X1.5204 Y-1.5388
X1.5287 Y-1.5296
X1.5368 Y-1.5197
X1.5434 Y-1.5108
X1.5501 Y-1.5009
X1.5587 Y-1.4837
X1.5647 Y-1.4653
X1.5677 Y-1.4463
X1.5679 Y-1.427
X1.5652 Y-1.4079
X1.5595 Y-1.3895
X1.5512 Y-1.3721
X1.5219 Y-1.3213
G03 X1.4948 Y-1.3147 I-0.017 J-0.0106
X1.4867 Y-1.3236 I0.0102 J-0.0172 F100.
G01 X1.3699 Y-1.5802
G03 X1.3681 Y-1.5883 I0.0182 J-0.0083
X1.3874 Y-1.6085 I0.02 J-0.0002 F25.
G01 X1.4486
X1.4559 Y-1.6081
X1.4619 Y-1.6075
X1.4678 Y-1.6066
X1.474 Y-1.6054
X1.4808 Y-1.6036
X1.4877 Y-1.6015
X1.495 Y-1.5988
X1.5027 Y-1.5956
X1.5106 Y-1.5919
X1.5184 Y-1.5877
X1.5263 Y-1.5829
X1.5332 Y-1.5783
X1.5407 Y-1.5727
X1.5476 Y-1.567
X1.5536 Y-1.5616
X1.56 Y-1.5551
X1.566 Y-1.5486
X1.571 Y-1.5425
X1.5798 Y-1.5287
X1.5865 Y-1.5137
X1.5909 Y-1.4979
X1.5931 Y-1.4817
X1.5928 Y-1.4653
X1.5902 Y-1.4491
X1.5853 Y-1.4335
X1.5781 Y-1.4187
G03 X1.551 Y-1.4121 I-0.017 J-0.0106
X1.5448 Y-1.4178 I0.0102 J-0.0172 F100.
G01 X1.4329 Y-1.577
G03 X1.4293 Y-1.5883 I0.0164 J-0.0115
X1.4486 Y-1.6085 I0.02 J-0.0002 F25.
G01 X1.5082
X1.5141 Y-1.6082
X1.5201 Y-1.6076
X1.526 Y-1.6066
X1.5319 Y-1.6052
X1.5376 Y-1.6036
X1.5433 Y-1.6016
X1.5489 Y-1.5994
X1.5546 Y-1.5968
X1.5601 Y-1.5939
X1.5652 Y-1.5908
X1.5706 Y-1.5873
X1.5759 Y-1.5834
X1.5805 Y-1.5796
X1.5853 Y-1.5753
X1.5956 Y-1.5633
X1.6038 Y-1.5498
X1.6097 Y-1.535
X1.6131 Y-1.5196
X1.6139 Y-1.5037
X1.6122 Y-1.488
X1.6078 Y-1.4728
X1.6011 Y-1.4584
G03 X1.5739 Y-1.4518 I-0.017 J-0.0106
X1.5672 Y-1.4584 I0.0102 J-0.0172 F100.
G01 X1.4919 Y-1.5778
G03 X1.4888 Y-1.5883 I0.0169 J-0.0107
X1.5082 Y-1.6085 I0.02 J-0.0002 F25.
G01 X1.5558
X1.5618 Y-1.6082
X1.5678 Y-1.6074
X1.5736 Y-1.6061
X1.5794 Y-1.6043
X1.5849 Y-1.6021
X1.5975 Y-1.5947
X1.6084 Y-1.585
X1.6174 Y-1.5736
X1.6242 Y-1.5607
X1.6285 Y-1.5468
X1.6302 Y-1.5323
X1.6292 Y-1.5178
X1.6256 Y-1.5037
X1.6195 Y-1.4905
G03 X1.5924 Y-1.4839 I-0.017 J-0.0106
X1.5849 Y-1.4918 I0.0102 J-0.0172 F100.
G01 X1.5388 Y-1.5792
G03 X1.5365 Y-1.5883 I0.0177 J-0.0093
X1.5558 Y-1.6085 I0.02 J-0.0002 F25.
G01 X1.5895
X1.5955 Y-1.6082
X1.6014 Y-1.6071
X1.6072 Y-1.6053
X1.6184 Y-1.599
X1.628 Y-1.5905
X1.6356 Y-1.5802
X1.6409 Y-1.5685
X1.6437 Y-1.5559
Y-1.5431
X1.6411 Y-1.5305
X1.6359 Y-1.5188
G03 X1.6087 Y-1.5121 I-0.017 J-0.0106
X1.6009 Y-1.5206 I0.0102 J-0.0172 F100.
G01 X1.5722 Y-1.5798
G03 X1.5702 Y-1.5883 I0.018 J-0.0087
X1.5895 Y-1.6085 I0.02 J-0.0002 F25.
G01 X1.6135
X1.6195 Y-1.6082
X1.6254 Y-1.607
X1.6354 Y-1.6018
X1.6438 Y-1.5943
X1.6501 Y-1.5849
X1.654 Y-1.5743
X1.6551 Y-1.5631
X1.6534 Y-1.5519
X1.649 Y-1.5415
G03 X1.6219 Y-1.5349 I-0.017 J-0.0106
X1.6141 Y-1.5433 I0.0102 J-0.0172 F100.
G01 X1.5963 Y-1.5797
G03 X1.5942 Y-1.5883 I0.018 J-0.0088
X1.6135 Y-1.6085 I0.02 J-0.0002 F25.
G01 X1.6227
X1.6283 Y-1.6079
X1.631 Y-1.6073
X1.6353 Y-1.6059
X1.6395 Y-1.6039
X1.6446 Y-1.6006
X1.6496 Y-1.596
X1.6507 Y-1.5948
X1.6544 Y-1.5898
X1.6569 Y-1.5848
X1.6588 Y-1.5792
X1.6597 Y-1.5735
X1.6598 Y-1.5679
X1.659 Y-1.5623
X1.6573 Y-1.5567
X1.6545 Y-1.5511
X1.5512 Y-1.3721
G03 X1.5392 Y-1.3633 I-0.017 J-0.0106
G01 X1.524 Y-1.3594
X0.9064 Y-1.2012 F100.
X0.9009 Y-1.1998 F25.
G03 X0.879 Y-1.2086 I-0.005 J-0.0194
G01 X0.8338 Y-1.2869
X0.8301 Y-1.2941
X0.8274 Y-1.3
X0.8248 Y-1.3066
X0.8225 Y-1.3135
X0.8202 Y-1.3213
X0.8183 Y-1.3297
X0.8167 Y-1.3385
X0.8154 Y-1.3481
X0.8145 Y-1.3584
X0.8141 Y-1.3691
X0.8143 Y-1.3802
X0.815 Y-1.3921
X0.8164 Y-1.4045
X0.8184 Y-1.4171
X0.8211 Y-1.43
X0.8246 Y-1.4432
X0.8289 Y-1.4567
X0.834 Y-1.4705
X0.8399 Y-1.4844
X0.8466 Y-1.4982
X0.8541 Y-1.5119
X0.8624 Y-1.5255
X0.8715 Y-1.5389
X0.8814 Y-1.552
X0.8921 Y-1.5648
X0.8936 Y-1.5665
X0.9066 Y-1.5788
X0.9212 Y-1.5892
X0.937 Y-1.5975
X0.9539 Y-1.6036
X0.9714 Y-1.6073
X0.9892 Y-1.6085
X1.073
G03 X1.0923 Y-1.5883 I-0.0007 J0.02
X1.0882 Y-1.5764 I-0.02 J-0.0002 F100.
G01 X0.8667 Y-1.2854
G03 X0.8609 Y-1.2803 I-0.0159 J-0.0121
X0.8338 Y-1.2869 I-0.0102 J-0.0172 F25.
G01 X0.8011 Y-1.3436
X0.7969 Y-1.3518
X0.7944 Y-1.3573
X0.7922 Y-1.3629
X0.7902 Y-1.3689
X0.7882 Y-1.3758
X0.7866 Y-1.383
X0.7851 Y-1.3909
X0.784 Y-1.3996
X0.7833 Y-1.4085
X0.783 Y-1.4182
X0.7832 Y-1.4286
X0.7839 Y-1.4394
X0.7852 Y-1.4506
X0.7871 Y-1.4626
X0.7898 Y-1.4751
X0.7932 Y-1.4877
X0.7973 Y-1.5007
X0.8023 Y-1.514
X0.8073 Y-1.5255
X0.8131 Y-1.5376
X0.8186 Y-1.5475
X0.8295 Y-1.5626
X0.8425 Y-1.576
X0.8573 Y-1.5874
X0.8736 Y-1.5965
X0.8911 Y-1.6031
X0.9093 Y-1.6071
X0.9279 Y-1.6085
X0.9892
G03 X1.0086 Y-1.5883 I-0.0007 J0.02
X1.0047 Y-1.5767 I-0.02 J-0.0002 F100.
G01 X0.8342 Y-1.3424
G03 X0.8282 Y-1.3369 I-0.0162 J-0.0118
X0.8011 Y-1.3436 I-0.0102 J-0.0172 F25.
G01 X0.7702 Y-1.397
X0.7666 Y-1.404
X0.7642 Y-1.4094
X0.762 Y-1.415
X0.7601 Y-1.4209
X0.7584 Y-1.4272
X0.7568 Y-1.4343
X0.7555 Y-1.4417
X0.7545 Y-1.4498
X0.7539 Y-1.4585
X0.7537 Y-1.4676
X0.7539 Y-1.477
X0.7546 Y-1.4867
X0.7557 Y-1.4954
X0.7573 Y-1.505
X0.7593 Y-1.514
X0.7616 Y-1.5222
X0.7646 Y-1.5313
X0.7677 Y-1.5395
X0.7755 Y-1.5543
X0.7853 Y-1.5677
X0.797 Y-1.5796
X0.8102 Y-1.5897
X0.8248 Y-1.5978
X0.8404 Y-1.6037
X0.8567 Y-1.6073
X0.8733 Y-1.6085
G03 X0.8926 Y-1.5883 I-0.0007 J0.02
X0.8907 Y-1.58 I-0.02 J-0.0002 F100.
G01 X0.8053 Y-1.3991
G03 X0.7974 Y-1.3904 I-0.0181 J-0.0085
X0.7702 Y-1.397 I-0.0102 J-0.0172 F25.
G01 X0.7412 Y-1.4472
X0.7382 Y-1.4532
X0.7357 Y-1.4587
X0.7336 Y-1.4643
X0.7318 Y-1.47
X0.7303 Y-1.4758
X0.7291 Y-1.4819
X0.7282 Y-1.4878
X0.7276 Y-1.4938
X0.7272 Y-1.5005
Y-1.5067
X0.7275 Y-1.5127
X0.7282 Y-1.5196
X0.7291 Y-1.526
X0.7303 Y-1.532
X0.7356 Y-1.5478
X0.7435 Y-1.5625
X0.7536 Y-1.5758
X0.7659 Y-1.5871
X0.7798 Y-1.5963
X0.7951 Y-1.603
X0.8112 Y-1.6071
X0.8279 Y-1.6085
G03 X0.8472 Y-1.5883 I-0.0007 J0.02
X0.8448 Y-1.5792 I-0.02 J-0.0002 F100.
G01 X0.7759 Y-1.4485
G03 X0.7684 Y-1.4406 I-0.0177 J-0.0093
X0.7412 Y-1.4472 I-0.0102 J-0.0172 F25.
G01 X0.716 Y-1.4909
X0.7133 Y-1.4963
X0.7111 Y-1.5018
X0.7093 Y-1.5076
X0.708 Y-1.5134
X0.7071 Y-1.5194
X0.7067 Y-1.5253
X0.7078 Y-1.5397
X0.7115 Y-1.5537
X0.7175 Y-1.5669
X0.7257 Y-1.5787
X0.7359 Y-1.589
X0.7477 Y-1.5973
X0.7608 Y-1.6035
X0.7748 Y-1.6072
X0.7892 Y-1.6085
G03 X0.8085 Y-1.5883 I-0.0007 J0.02
X0.8053 Y-1.5777 I-0.02 J-0.0002 F100.
G01 X0.7498 Y-1.4908
G03 X0.7432 Y-1.4843 I-0.0169 J-0.0108
X0.716 Y-1.4909 I-0.0102 J-0.0172 F25.
G01 X0.6994 Y-1.5196
X0.6967 Y-1.525
X0.6945 Y-1.5306
X0.6931 Y-1.5364
X0.6922 Y-1.5423
X0.6928 Y-1.5551
X0.696 Y-1.5674
X0.7017 Y-1.5788
X0.7095 Y-1.5889
X0.7191 Y-1.5972
X0.7303 Y-1.6034
X0.7424 Y-1.6072
X0.7551 Y-1.6085
G03 X0.7744 Y-1.5883 I-0.0007 J0.02
X0.7712 Y-1.5776 I-0.02 J-0.0002 F100.
G01 X0.7331 Y-1.5193
G03 X0.7266 Y-1.513 I-0.0167 J-0.0109
X0.6994 Y-1.5196 I-0.0102 J-0.0172 F25.
G01 X0.6863 Y-1.5424
X0.6836 Y-1.5477
X0.6818 Y-1.5534
X0.6807 Y-1.5593
X0.6815 Y-1.5702
X0.6847 Y-1.5805
X0.6902 Y-1.5898
X0.6976 Y-1.5977
X0.7067 Y-1.6036
X0.7169 Y-1.6072
X0.7277 Y-1.6085
G03 X0.747 Y-1.5883 I-0.0007 J0.02
X0.7436 Y-1.5774 I-0.02 J-0.0002 F100.
G01 X0.7199 Y-1.5419
G03 X0.7134 Y-1.5358 I-0.0166 J-0.0111
X0.6863 Y-1.5424 I-0.0102 J-0.0172 F25.
G01 X0.6813 Y-1.5511
X0.6785 Y-1.5567
X0.6768 Y-1.5623
X0.676 Y-1.5679
X0.6761 Y-1.5735
X0.677 Y-1.5792
X0.6789 Y-1.5848
X0.6814 Y-1.5898
X0.6851 Y-1.5948
X0.6862 Y-1.596
X0.6912 Y-1.6006
X0.6963 Y-1.6039
X0.7006 Y-1.6059
X0.7048 Y-1.6073
X0.7075 Y-1.6079
X0.7132 Y-1.6085
X0.9279
G03 X0.9382 Y-1.6052 I-0.0007 J0.02
G01 X0.9401 Y-1.6033 Z0.3356
X0.9419 Y-1.6015 Z0.3361
X0.9438 Y-1.5997 Z0.337
X0.9449 Y-1.597 Z0.3386
X0.9459 Y-1.5946 Z0.3407
X0.9468 Y-1.5925 Z0.3431
X0.947 Y-1.5906 Z0.346
X0.9471 Y-1.5893 Z0.3492
X0.9472 Y-1.5885 Z0.3525
Y-1.5883 Z0.3554
G00 Z1.2
X0.5808 Y-2.2037
Z0.69
G01 Z0.67 F25.
X0.5805 Y-2.2036 Z0.6665
X0.5797 Y-2.2034 Z0.6632
X0.5782 Y-2.203 Z0.66
X0.5763 Y-2.2025 Z0.6571
X0.5739 Y-2.2019 Z0.6547
X0.5712 Y-2.2011 Z0.6527
X0.5681 Y-2.2003 Z0.6512
X0.5648 Y-2.1995 Z0.6503
X0.5615 Y-2.1986 Z0.65
G03 X0.3576 Y-2.1675 I-0.2455 J-0.9254
G01 X0.3482 Y-2.1674
X0.3258 Y-2.1667
X0.3146 Y-2.1658
X0.2921 Y-2.163
X0.2809 Y-2.1614
X0.2584 Y-2.1583
X0.2472 Y-2.1558
X0.236 Y-2.1529
X0.2247 Y-2.1494
X0.2023 Y-2.1404
X0.1912 Y-2.1358
X0.149 Y-2.1204
X0.1079 Y-2.1022
X0.0705 Y-2.0772
X0.0409 Y-2.0433
X0.0209 Y-2.0031
X0.0178 Y-1.9943
X0.0142 Y-1.9858
X0.01 Y-1.9775
G03 X-0.0171 Y-1.9706 I-0.0171 J-0.0104
X-0.0203 Y-2.003 I0.01 J-0.0173 F100.
G01 X0.1696 Y-2.169
G03 X0.2011 Y-2.162 I0.0132 J0.0151
X0.1912 Y-2.1358 I-0.0183 J0.008 F25.
G01 X0.1647 Y-2.1246
X0.1574 Y-2.1212
X0.1445 Y-2.1134
X0.1349 Y-2.1075
X0.1275 Y-2.1021
X0.1124 Y-2.0907
X0.1012 Y-2.0821
X0.0721 Y-2.0581
X0.0716 Y-2.0576
X0.052 Y-2.0346
X0.0451 Y-2.0263
X0.0226 Y-1.997
X0.0177 Y-1.9896
X0.0104 Y-1.9784
X0.0041 Y-1.9672
X-0.0056 Y-1.9447
X-0.0104 Y-1.9334
X-0.0223 Y-1.9045
X-0.0238 Y-1.8997
X-0.0303 Y-1.8772
X-0.0323 Y-1.8659
X-0.0357 Y-1.8434
X-0.0387 Y-1.821
X-0.04 Y-1.8097
X-0.0411 Y-1.7872
X-0.0408 Y-1.776
X-0.0387 Y-1.7535
X-0.0373 Y-1.7422
X-0.0343 Y-1.7197
X-0.0335 Y-1.7153
X-0.0301 Y-1.6972
X-0.0277 Y-1.686
X-0.0241 Y-1.6748
X-0.0223 Y-1.6694
X-0.0199 Y-1.6635
X-0.0153 Y-1.6523
X-0.006 Y-1.6298
X-0.0009 Y-1.6185
X0.0045 Y-1.6073
Y-1.6069
G02 X0.0029 Y-1.5764 I1.4917 J0.0947
X0.0107 Y-1.3464 I1.4934 J0.0642 F100.
X0.0133 Y-1.3386 I0.0199 J-0.0022
G01 X0.603 Y-0.3158
G02 X0.6084 Y-0.3097 I0.0173 J-0.01
X0.8036 Y-0.1876 I0.8879 J-1.2025
X0.8307 Y-0.1738 I0.6927 J-1.3246 F25.
G01 X0.8311 Y-0.1735
X0.8346 Y-0.1678
X0.8492 Y-0.1453
X0.8535 Y-0.1387
X0.876 Y-0.1095
X0.8833 Y-0.1003
X0.8872 Y-0.0954
X0.8929 Y-0.0891
X0.9039 Y-0.0778
X0.9097 Y-0.073
X0.9173 Y-0.0666
X0.9209 Y-0.0638
X0.9319 Y-0.0553
X0.9661 Y-0.0262
X1.0017 Y0.0013
X1.0411 Y0.0229
X1.0846 Y0.0343
X1.1296 Y0.034
X1.148 Y0.0299
X1.1546 Y0.0287
X1.1612 Y0.0282
X1.1679 Y0.0284
G03 X1.1867 Y0.049 I-0.0012 J0.02
X1.16 Y0.0672 I-0.02 J-0.0007 F100.
G01 X0.9136 Y-0.0202
G03 X0.9043 Y-0.0511 I0.0067 J-0.0189
X0.9319 Y-0.0553 I0.016 J0.012 F25.
G01 X0.9465 Y-0.0441
X0.9546 Y-0.0382
X0.9797 Y-0.0216
X0.9883 Y-0.0168
X0.9995 Y-0.0118
X1.0107 Y-0.007
X1.0444 Y0.007
X1.0669 Y0.0145
X1.0781 Y0.0173
X1.1005 Y0.0211
X1.1118 Y0.0227
X1.1342 Y0.0257
X1.1454 Y0.0267
X1.1679 Y0.0284
X1.1904 Y0.0267
X1.2016 Y0.0257
X1.224 Y0.0227
X1.2353 Y0.0211
X1.2577 Y0.0173
X1.269 Y0.0145
X1.2914 Y0.007
X1.3251 Y-0.007
X1.3363 Y-0.0118
X1.3476 Y-0.0168
X1.3561 Y-0.0216
X1.3812 Y-0.0382
X1.3893 Y-0.0441
X1.4149 Y-0.0638
X1.4185 Y-0.0666
X1.4262 Y-0.073
X1.4319 Y-0.0778
X1.4429 Y-0.0891
X1.4486 Y-0.0954
X1.4526 Y-0.1003
X1.4598 Y-0.1095
X1.4823 Y-0.1387
X1.4866 Y-0.1453
X1.4979 Y-0.1627
X1.4984 Y-0.1631
G02 X1.527 Y-0.1733 I-0.4109 J-1.1926
X1.6992 Y-0.2525 I-0.4395 J-1.1824 F100.
X1.7069 Y-0.26 I-0.0097 J-0.0175
G01 X2.346 Y-1.3665
G02 X2.3487 Y-1.3768 I-0.0173 J-0.01
X2.3313 Y-1.5656 I-1.2612 J0.0211
X2.3259 Y-1.5955 I-1.2438 J0.2099 F25.
G01 Y-1.596
X2.3313 Y-1.6073
X2.3365 Y-1.6185
X2.3416 Y-1.6298
X2.3509 Y-1.6523
X2.3554 Y-1.6635
X2.3581 Y-1.6702
X2.3596 Y-1.6748
X2.3631 Y-1.686
X2.3654 Y-1.6972
X2.3693 Y-1.7184
X2.371 Y-1.731
X2.3791 Y-1.7752
X2.385 Y-1.8198
X2.3838 Y-1.8647
X2.3719 Y-1.9081
X2.349 Y-1.9468
X2.3409 Y-1.9555
X2.3348 Y-1.9625
X2.3293 Y-1.97
X2.3244 Y-1.9779
G03 X2.3313 Y-2.0049 I0.0173 J-0.01
X2.3614 Y-1.9916 I0.0104 J0.0171 F100.
G01 X2.4106 Y-1.7328
G03 X2.3885 Y-1.7092 I-0.0196 J0.0037
X2.371 Y-1.731 I0.0024 J-0.0199 F25.
G01 X2.3725 Y-1.7422
X2.3738 Y-1.7535
X2.3759 Y-1.776
X2.3761 Y-1.7872
X2.375 Y-1.8097
X2.3736 Y-1.821
X2.3707 Y-1.8434
X2.3673 Y-1.8659
X2.3652 Y-1.8772
X2.3581 Y-1.9019
X2.3452 Y-1.9334
X2.3403 Y-1.9447
X2.3306 Y-1.9672
X2.3244 Y-1.9779
X2.3132 Y-1.9952
X2.309 Y-2.0009
X2.2907 Y-2.0247
X2.2826 Y-2.0346
X2.2683 Y-2.0515
X2.2634 Y-2.0571
X2.257 Y-2.0625
X2.2346 Y-2.081
X2.2218 Y-2.0909
X2.207 Y-2.1021
X2.2009 Y-2.1065
X2.1785 Y-2.1203
X2.1695 Y-2.1246
X2.1431 Y-2.1358
X2.1335 Y-2.1397
X2.1111 Y-2.1488
X2.0999 Y-2.1526
X2.0886 Y-2.1554
X2.0774 Y-2.158
X2.0549 Y-2.1612
X2.0437 Y-2.1627
X2.0213 Y-2.1656
X2.01 Y-2.1665
X1.9926 Y-2.1672
G03 X1.9741 Y-2.1881 I0.0014 J-0.0199
G01 X1.9743 Y-2.1915 Z0.6503
X1.9744 Y-2.1949 Z0.6512
X1.9746 Y-2.1981 Z0.6527
X1.9747 Y-2.2009 Z0.6547
X1.9748 Y-2.2034 Z0.6571
X1.9749 Y-2.2054 Z0.66
X1.975 Y-2.2069 Z0.6632
Y-2.2078 Z0.6665
Y-2.2081 Z0.67
G00 Z1.38
(2D POCKET1)
G54
M08
G00 X1.1729 Y-1.2748
Z1.38
Z1.18
G01 Z1.0194 F20.
Z0.3675 F100.
G03 X1.1716 Y-1.2749 Z0.3578 I0.0018 J-0.0375
X1.1679 Y-1.2754 Z0.3487 I0.003 J-0.0374
X1.1621 Y-1.2769 Z0.341 I0.0068 J-0.0369
X1.1551 Y-1.2803 Z0.335 I0.0125 J-0.0354
X1.1481 Y-1.2858 Z0.3313 I0.0195 J-0.032
X1.1422 Y-1.2935 Z0.33 I0.0266 J-0.0264
G01 X1.1229 Y-1.327 F25.
G03 X1.1293 Y-1.3381 I0.0064 J-0.0037
G01 X1.2065
G03 X1.2129 Y-1.327 J0.0074
G01 X1.1743 Y-1.2601
G03 X1.1615 I-0.0064 J-0.0037
G01 X1.1422 Y-1.2935
G02 X0.9237 Y-1.4016 I-0.1903 J0.1098
G03 X0.7052 Y-1.5096 I-0.0282 J-0.2179
G01 X0.6481 Y-1.6085
X1.6877
X1.1679 Y-0.7081
X0.7052 Y-1.5096
G03 X0.7015 Y-1.5186 Z0.3313 I0.0325 J-0.0187 F20.
X0.7002 Y-1.5275 Z0.335 I0.0362 J-0.0098
X0.7008 Y-1.5352 Z0.341 I0.0375 J-0.0009
X0.7024 Y-1.541 Z0.3487 I0.0369 J0.0068
X0.7038 Y-1.5444 Z0.3578 I0.0353 J0.0126
X0.7044 Y-1.5456 Z0.3675 I0.0339 J0.0161
G00 Z1.38
(2D CONTOUR1 CLEANUP)
G54
M08
G00 X1.4089 Y-1.2611
Z1.38
Z1.18
G01 Z1.0194 F100.
Z0.3675
X1.409 Y-1.2609 Z0.363
X1.4092 Y-1.2601 Z0.3585
X1.4095 Y-1.2588 Z0.3542
X1.41 Y-1.257 Z0.3501
X1.4106 Y-1.2547 Z0.3462
X1.4113 Y-1.252 Z0.3426
X1.4122 Y-1.2489 Z0.3394
X1.4131 Y-1.2455 Z0.3366
X1.4141 Y-1.2417 Z0.3343
X1.4152 Y-1.2377 Z0.3324
X1.4163 Y-1.2336 Z0.3311
X1.4174 Y-1.2293 Z0.3303
X1.4186 Y-1.2249 Z0.33
G41 X1.4464 Y-1.1935 D33 F20.
G03 X1.4408 Y-1.1508 I-0.0543 J0.0146
G01 X1.1841 Y-0.7062 F25.
G03 X1.1517 I-0.0162 J-0.0094
G01 X0.6384 Y-1.5954
G03 X0.6546 Y-1.6235 I0.0162 J-0.0094
G01 X1.6812
G03 X1.6974 Y-1.5954 J0.0187
G01 X1.4408 Y-1.1508
G03 X1.4067 Y-1.1246 I-0.0487 J-0.0281 F20.
G01 G40 X1.3656 Y-1.133
X1.3612 Y-1.1319 Z0.3303
X1.3569 Y-1.1307 Z0.3311
X1.3527 Y-1.1296 Z0.3324
X1.3487 Y-1.1285 Z0.3343
X1.345 Y-1.1275 Z0.3366
X1.3416 Y-1.1266 Z0.3394
X1.3385 Y-1.1258 Z0.3426
X1.3358 Y-1.125 Z0.3462
X1.3335 Y-1.1244 Z0.3501
X1.3317 Y-1.124 Z0.3542
X1.3304 Y-1.1236 Z0.3585
X1.3296 Y-1.1234 Z0.363
X1.3294 Y-1.1233 Z0.3675
G00 Z1.38
(2D CONTOUR1 2)
G54
M08
G00 X0.7304 Y-0.1923
Z1.38
Z1.18
G01 Z1.0194 F100.
Z0.3675
X0.7306 Z0.363
X0.7314 Y-0.192 Z0.3585
X0.7327 Y-0.1917 Z0.3542
X0.7345 Y-0.1912 Z0.3501
X0.7368 Y-0.1906 Z0.3462
X0.7395 Y-0.1899 Z0.3426
X0.7426 Y-0.1891 Z0.3394
X0.746 Y-0.1881 Z0.3366
X0.7498 Y-0.1871 Z0.3343
X0.7538 Y-0.1861 Z0.3324
X0.7579 Y-0.1849 Z0.3311
X0.7622 Y-0.1838 Z0.3303
X0.7666 Y-0.1826 Z0.33
G41 X0.8077 Y-0.191 D33 F20.
G03 X0.8418 Y-0.1648 I-0.0146 J0.0543
G02 X1.494 I0.3261 J-0.1882 F25.
G03 X1.5281 Y-0.191 I0.0487 J0.0281 F20.
G01 G40 X1.5692 Y-0.1826
X1.5736 Y-0.1838 Z0.3303
X1.5779 Y-0.1849 Z0.3311
X1.5821 Y-0.1861 Z0.3324
X1.586 Y-0.1871 Z0.3343
X1.5898 Y-0.1881 Z0.3366
X1.5932 Y-0.1891 Z0.3394
X1.5963 Y-0.1899 Z0.3426
X1.599 Y-0.1906 Z0.3462
X1.6013 Y-0.1912 Z0.3501
X1.6031 Y-0.1917 Z0.3542
X1.6044 Y-0.192 Z0.3585
X1.6052 Y-0.1923 Z0.363
X1.6054 Z0.3675
G00 Z1.18
X2.3531 Y-1.4875
G01 Z1.0194 F100.
Z0.3675
X2.353 Y-1.4878 Z0.363
X2.3528 Y-1.4885 Z0.3585
X2.3524 Y-1.4898 Z0.3542
X2.3519 Y-1.4916 Z0.3501
X2.3513 Y-1.4939 Z0.3462
X2.3506 Y-1.4966 Z0.3426
X2.3498 Y-1.4997 Z0.3394
X2.3489 Y-1.5031 Z0.3366
X2.3479 Y-1.5069 Z0.3343
X2.3468 Y-1.5109 Z0.3324
X2.3457 Y-1.515 Z0.3311
X2.3445 Y-1.5193 Z0.3303
X2.3433 Y-1.5237 Z0.33
G41 X2.3155 Y-1.5551 D33 F20.
G03 X2.3211 Y-1.5978 I0.0543 J-0.0146
G02 X1.9951 Y-2.1625 I-0.3261 J-0.1882 F25.
G03 X1.9553 Y-2.179 J-0.0562 F20.
G01 G40 X1.942 Y-2.2187
X1.9388 Y-2.2219 Z0.3303
X1.9357 Y-2.2251 Z0.3311
X1.9326 Y-2.2281 Z0.3324
X1.9297 Y-2.2311 Z0.3343
X1.927 Y-2.2338 Z0.3366
X1.9245 Y-2.2363 Z0.3394
X1.9222 Y-2.2386 Z0.3426
X1.9202 Y-2.2406 Z0.3462
X1.9186 Y-2.2422 Z0.3501
X1.9172 Y-2.2435 Z0.3542
X1.9163 Y-2.2445 Z0.3585
X1.9157 Y-2.2451 Z0.363
X1.9155 Y-2.2453 Z0.3675
G00 Z1.18
X0.4186
G01 Z1.0194 F100.
Z0.3675
X0.4184 Y-2.2451 Z0.363
X0.4178 Y-2.2445 Z0.3585
X0.4168 Y-2.2435 Z0.3542
X0.4155 Y-2.2422 Z0.3501
X0.4139 Y-2.2406 Z0.3462
X0.4119 Y-2.2386 Z0.3426
X0.4096 Y-2.2363 Z0.3394
X0.4071 Y-2.2338 Z0.3366
X0.4044 Y-2.2311 Z0.3343
X0.4014 Y-2.2281 Z0.3324
X0.3984 Y-2.2251 Z0.3311
X0.3952 Y-2.2219 Z0.3303
X0.392 Y-2.2187 Z0.33
G41 X0.3788 Y-2.179 D33 F20.
G03 X0.339 Y-2.1625 I-0.0398 J-0.0398
G02 X0.0138 Y-1.5993 J0.3755 F25.
G03 X0.0194 Y-1.5566 I-0.0487 J0.0281 F20.
G01 G40 X-0.0084 Y-1.5252
X-0.0096 Y-1.5209 Z0.3303
X-0.0107 Y-1.5166 Z0.3311
X-0.0119 Y-1.5124 Z0.3324
X-0.0129 Y-1.5084 Z0.3343
X-0.0139 Y-1.5046 Z0.3366
X-0.0149 Y-1.5012 Z0.3394
X-0.0157 Y-1.4981 Z0.3426
X-0.0164 Y-1.4954 Z0.3462
X-0.017 Y-1.4931 Z0.3501
X-0.0175 Y-1.4914 Z0.3542
X-0.0178 Y-1.49 Z0.3585
X-0.0181 Y-1.4893 Z0.363
Y-1.489 Z0.3675
G00 Z1.38
(2D CONTOUR1 3)
G54
M08
G00 X2.517 Y-1.7522
Z1.38
Z1.18
G01 Z1.0194 F100.
Z0.2575
X2.5168 Y-1.7525 Z0.253
X2.5165 Y-1.7532 Z0.2485
X2.5159 Y-1.7544 Z0.2442
X2.515 Y-1.756 Z0.2401
X2.5139 Y-1.7581 Z0.2362
X2.5126 Y-1.7606 Z0.2326
X2.5112 Y-1.7634 Z0.2294
X2.5095 Y-1.7666 Z0.2266
X2.5077 Y-1.7701 Z0.2243
X2.5058 Y-1.7737 Z0.2224
X2.5039 Y-1.7776 Z0.2211
X2.5018 Y-1.7815 Z0.2203
X2.4997 Y-1.7855 Z0.22
G41 X2.4658 Y-1.8102 D33 F20.
G03 X2.4622 Y-1.8531 I0.0499 J-0.0259
G02 X2.2358 Y-2.1625 I-0.2264 J-0.0719 F25.
G01 X0.1
G02 X-0.1057 Y-1.8063 J0.2375
G01 X0.9622 Y0.0437
G02 X1.3736 I0.2057 J-0.1187
G01 X2.4415 Y-1.8063
G02 X2.4622 Y-1.8531 I-0.2057 J-0.1187
G03 X2.4899 Y-1.886 I0.0536 J0.017 F20.
G01 G40 X2.5318 Y-1.8866
X2.5358 Y-1.8887 Z0.2203
X2.5398 Y-1.8907 Z0.2211
X2.5436 Y-1.8927 Z0.2224
X2.5473 Y-1.8946 Z0.2243
X2.5507 Y-1.8964 Z0.2266
X2.5539 Y-1.8981 Z0.2294
X2.5568 Y-1.8995 Z0.2326
X2.5592 Y-1.9008 Z0.2362
X2.5613 Y-1.9019 Z0.2401
X2.563 Y-1.9027 Z0.2442
X2.5642 Y-1.9034 Z0.2485
X2.5649 Y-1.9037 Z0.253
X2.5651 Y-1.9039 Z0.2575
G00 Z1.38
M05
G28 G91 Z0.
G90
(2D CONTOUR1 4)
M09
M01
T0016 M06
T0015
S2500 M03
G54
M08
G00 X2.1134 Y-0.0015
G43 Z1.38 H16
G00 Z1.18
G01 Z1.0194 F100.
Z0.595
G41 X1.9618 Y-0.1412 D46 F15.
G03 X1.926 Y-0.3291 I0.209 J-0.1373
X2.3952 Y-1.1421 I1.4639 J0.3032
X2.5759 Y-1.205 I0.1663 J0.1866
G01 G40 X2.7727 Y-1.1436
G00 Z1.18
X1.8276 Y-2.7806
G01 Z1.0194 F100.
Z0.595
G41 X1.7825 Y-2.5795 D46 F15.
G03 X1.6378 Y-2.4543 I-0.2234 J-0.1121
X0.6965 I-0.4706 J-1.419
X0.5518 Y-2.5795 I0.0787 J-0.2373
G01 G40 X0.5067 Y-2.7806
G00 Z1.18
X-0.4361 Y-1.1423
G01 Z1.0194 F100.
Z0.595
G41 X-0.2393 Y-1.2037 D46 F15.
G03 X-0.0587 Y-1.1408 I0.0144 J0.2496
X0.4106 Y-0.3278 I-0.9947 J1.1161
X0.3747 Y-0.1399 I-0.2448 J0.0507
G01 G40 X0.2231 Y-0.0002
G00 Z1.38
(2D CONTOUR1 5 FINISH PASS)
G54
M08
G00 X2.1085 Y-0.0025
Z1.38
Z1.18
G01 Z1.0194 F100.
Z0.595
G41 X1.9569 Y-0.1422 D46 F15.
G03 X1.9211 Y-0.3302 I0.209 J-0.1373
X2.3919 Y-1.1458 I1.4688 J0.3042
X2.5726 Y-1.2088 I0.1663 J0.1866
G01 G40 X2.7694 Y-1.1474
G00 Z1.18
X1.8291 Y-2.7759
G01 Z1.0194 F100.
Z0.595
G41 X1.7841 Y-2.5747 D46 F15.
G03 X1.6394 Y-2.4496 I-0.2234 J-0.1121
X0.6949 I-0.4722 J-1.4237
X0.5502 Y-2.5747 I0.0787 J-0.2373
G01 G40 X0.5052 Y-2.7759
G00 Z1.18
X-0.4328 Y-1.146
G01 Z1.0194 F100.
Z0.595
G41 X-0.236 Y-1.2074 D46 F15.
G03 X-0.0553 Y-1.1445 I0.0144 J0.2496
X0.4155 Y-0.3289 I-0.998 J1.1198
X0.3796 Y-0.1409 I-0.2448 J0.0507
G01 G40 X0.228 Y-0.0012
G00 Z1.38
M05
G28 G91 Z0.
G90
(2D CHAMFER1)
M09
M01
T0015 M06
T0010
S4000 M03
G54
M08
G00 X1.5339 Y-1.0971
G43 Z1.38 H15
G00 Z1.18
G01 Z1.06 F100.
Z0.93
X1.5629 Y-1.1049 F20.
G03 X1.5599 Y-1.0821 I-0.029 J0.0078
G01 X1.2969 Y-0.6266
G03 X1.0389 I-0.129 J-0.0745
G01 X0.513 Y-1.5375
G03 X0.6421 Y-1.761 I0.129 J-0.0745
G01 X1.6937
G03 X1.8228 Y-1.5375 J0.149
G01 X1.5599 Y-1.0821
G03 X1.5417 Y-1.0681 I-0.026 J-0.015
G01 X1.5339 Y-1.0971
G00 Z1.18
X2.2464 Y-1.7234
G01 Z1.06 F100.
Z0.93
X2.2207 Y-1.7079 F20.
G03 X2.2173 Y-1.7306 I0.0257 J-0.0155
G02 X1.9951 Y-2.015 I-0.2222 J-0.0554
G01 X0.339
G02 X0.1415 Y-1.673 J0.228
G01 X0.9696 Y-0.2386
G02 X1.3662 I0.1983 J-0.1145
G01 X2.1934 Y-1.6715
G02 X2.2173 Y-1.7306 I-0.1983 J-0.1145
G03 X2.2309 Y-1.7491 I0.0291 J0.0073
G01 X2.2464 Y-1.7234
G00 Z1.38
(DRILL2)
G54
M08
G00 Z1.6
X1.1679 Y-0.338
Z1.2
G98 G81 X1.1679 Y-0.338 Z0.875 R1.18 F100.
X1.9959 Y-1.786
X0.3399
G80
Z1.6
M05
G28 G91 Z0.
G90
(DRILL3)
M09
M01
T0010 M06
T0013
S4000 M03
G54
M08
G00 X1.1679 Y-0.338
G43 Z1.38 H10
G00 Z1.18
G83 X1.1679 Y-0.338 Z0.405 R1.18 Q0.0443 P0 F16.
X1.9959 Y-1.786
X0.3399
G80
Z1.38
M05
G28 G91 Z0.
G90
(DRILL3 2)
M09
M01
T0013 M06
T0001
S300 M03
G54
M08
G00 X1.1679 Y-0.338
G43 Z1.38 H13
G00 Z1.18
M03
G84 X1.1679 Y-0.338 Z0.505 R1.18 F9.375 S300
X1.9959 Y-1.786
X0.3399
G80
Z1.38
M09
M05
G28 G91 Z0.
G28 Y0.
G52
M30
%
