O1001 (AIR CUT)
(MACHINE)
(  VENDOR MATSUURA)
(  MODEL MC-510V WITH YASNAC MX3 CONTROLLER)
(  DESCRIPTION GENERIC 3-AXIS)
(T0001 D=0.5 CR=0. - ZMIN=-0.52 - FLAT END MILL)
G00
G90 G94 G17
G20
(WHEN USING FUSION 360 FOR PERSONAL USE, THE FEEDRATE OF)
(RAPID MOVES IS REDUCED TO MATCH THE FEEDRATE OF CUTTING)
(MOVES, WHICH CAN INCREASE MACHINING TIME. UNRESTRICTED RAPID)
(MOVES ARE AVAILABLE WITH A FUSION 360 SUBSCRIPTION.)
G28 G91 Z0.
G90
(2D ADAPTIVE1)
M09
T0001 M06
S100 M03
G00 G54
(M08 DO NOT USE COOLANT)
G00 X0.2186 Y0.0928
G43 Z0.6 H01
G01 Z0.2 F25.
Z0.102
G03 X-0.2186 Y-0.0928 Z0.0759 I-0.2186 J-0.0928 F15.
X0.2186 Y0.0928 Z0.0499 I0.2186 J0.0928
X-0.2186 Y-0.0928 Z0.0238 I-0.2186 J-0.0928
X0.2186 Y0.0928 Z-0.0022 I0.2186 J0.0928
X-0.2186 Y-0.0928 Z-0.0283 I-0.2186 J-0.0928
X0.2186 Y0.0928 Z-0.0543 I0.2186 J0.0928
X-0.2186 Y-0.0928 Z-0.0804 I-0.2186 J-0.0928
X0.2186 Y0.0928 Z-0.1064 I0.2186 J0.0928
X-0.2186 Y-0.0928 Z-0.1325 I-0.2186 J-0.0928
X0.2186 Y0.0928 Z-0.1586 I0.2186 J0.0928
X-0.2186 Y-0.0928 Z-0.1846 I-0.2186 J-0.0928
X0.2186 Y0.0928 Z-0.2107 I0.2186 J0.0928
X-0.2186 Y-0.0928 Z-0.2367 I-0.2186 J-0.0928
X0.2186 Y0.0928 Z-0.2628 I0.2186 J0.0928
X-0.2186 Y-0.0928 Z-0.2888 I-0.2186 J-0.0928
X0.2186 Y0.0928 Z-0.3149 I0.2186 J0.0928
X-0.2186 Y-0.0928 Z-0.3409 I-0.2186 J-0.0928
X0.2186 Y0.0928 Z-0.367 I0.2186 J0.0928
X-0.2186 Y-0.0928 Z-0.3931 I-0.2186 J-0.0928
X0.2186 Y0.0928 Z-0.4191 I0.2186 J0.0928
X-0.2186 Y-0.0928 Z-0.4452 I-0.2186 J-0.0928
X0.2186 Y0.0928 Z-0.4712 I0.2186 J0.0928
X-0.2186 Y-0.0928 Z-0.4973 I-0.2186 J-0.0928
X0.2375 Y0. Z-0.52 I0.2186 J0.0928
X-0.2375 I-0.2375
X0.2375 I0.2375
G01 X0.2377 Y0.0133 F25.
X0.2393 Y0.0265
X0.252 Y0.0783
X0.2552 Y0.0854
X0.2582 Y0.0937
X0.2607 Y0.1029
X0.2626 Y0.1133
X0.2638 Y0.1247
X0.2641 Y0.137
X0.2633 Y0.1502
X0.2613 Y0.1643
X0.2581 Y0.179
X0.2533 Y0.1943
X0.2471 Y0.2101
X0.2392 Y0.226
X0.2296 Y0.2421
X0.2182 Y0.258
X0.205 Y0.2736
X0.1901 Y0.2886
X0.1735 Y0.3029
X0.1551 Y0.3163
X0.1351 Y0.3285
X0.1137 Y0.3393
X0.0908 Y0.3487
X0.0667 Y0.3563
X0.0416 Y0.3622
X0.0156 Y0.366
X-0.0111 Y0.3678
X-0.0382 Y0.3674
X-0.0656 Y0.3648
X-0.0931 Y0.36
X-0.1204 Y0.3529
X-0.1472 Y0.3436
X-0.1735 Y0.332
X-0.1989 Y0.3182
X-0.2233 Y0.3024
X-0.2465 Y0.2845
X-0.2683 Y0.2647
X-0.2886 Y0.2432
X-0.3071 Y0.2199
X-0.3237 Y0.1952
X-0.3384 Y0.1692
X-0.351 Y0.142
X-0.3613 Y0.1138
X-0.3694 Y0.0848
X-0.3751 Y0.0552
X-0.3785 Y0.0251
X-0.3794 Y-0.0051
X-0.3779 Y-0.0354
X-0.374 Y-0.0654
X-0.3676 Y-0.0951
X-0.3589 Y-0.1242
X-0.3479 Y-0.1525
X-0.3346 Y-0.1799
X-0.3192 Y-0.2061
X-0.3017 Y-0.2311
X-0.2822 Y-0.2545
X-0.261 Y-0.2763
X-0.238 Y-0.2964
X-0.2135 Y-0.3145
X-0.1876 Y-0.3306
X-0.1605 Y-0.3446
X-0.1324 Y-0.3564
X-0.1034 Y-0.3659
X-0.0737 Y-0.373
X-0.0435 Y-0.3777
X-0.0131 Y-0.38
X0.0174 Y-0.3799
X0.0478 Y-0.3772
X0.078 Y-0.3722
X0.1076 Y-0.3647
X0.1365 Y-0.3549
X0.1645 Y-0.3428
X0.1915 Y-0.3285
X0.2173 Y-0.3121
X0.2416 Y-0.2937
X0.2644 Y-0.2733
X0.2855 Y-0.2513
X0.3047 Y-0.2275
X0.322 Y-0.2023
X0.3485 Y-0.1561
X0.3724 Y-0.1085
X0.3906 Y-0.0646
X0.4034 Y-0.025
X0.4122 Y0.0121
X0.4176 Y0.0474
X0.4201 Y0.0819
X0.4198 Y0.1157
X0.4168 Y0.1488
X0.4113 Y0.1813
X0.4032 Y0.2131
X0.3925 Y0.2442
X0.3794 Y0.2745
X0.3637 Y0.3038
X0.3456 Y0.332
X0.325 Y0.359
X0.3021 Y0.3846
X0.2769 Y0.4085
X0.2494 Y0.4306
X0.2199 Y0.4508
X0.1884 Y0.4687
X0.1552 Y0.4842
X0.1205 Y0.4972
X0.0844 Y0.5074
X0.0472 Y0.5149
X0.0091 Y0.5193
X-0.0296 Y0.5207
X-0.0687 Y0.519
X-0.1079 Y0.514
X-0.1469 Y0.5059
X-0.1855 Y0.4946
X-0.2234 Y0.4801
X-0.2602 Y0.4624
X-0.2958 Y0.4418
X-0.3298 Y0.4182
X-0.3619 Y0.3918
X-0.3919 Y0.3628
X-0.4197 Y0.3314
X-0.4449 Y0.2977
X-0.4674 Y0.262
X-0.487 Y0.2244
X-0.5036 Y0.1853
X-0.5171 Y0.145
X-0.5272 Y0.1035
X-0.5341 Y0.0613
X-0.5375 Y0.0187
Y-0.0242
X-0.534 Y-0.067
X-0.5272 Y-0.1094
X-0.5169 Y-0.1512
X-0.5033 Y-0.192
X-0.4864 Y-0.2317
X-0.4664 Y-0.2699
X-0.4434 Y-0.3064
X-0.4175 Y-0.3409
X-0.3889 Y-0.3733
X-0.3578 Y-0.4033
X-0.3244 Y-0.4307
X-0.2889 Y-0.4553
X-0.2515 Y-0.4771
X-0.2125 Y-0.4957
X-0.172 Y-0.5112
X-0.1305 Y-0.5234
X-0.0881 Y-0.5322
X-0.0452 Y-0.5375
X-0.0019 Y-0.5394
X0.0414 Y-0.5379
X0.0844 Y-0.5328
X0.1268 Y-0.5244
X0.1685 Y-0.5125
X0.2091 Y-0.4973
X0.2483 Y-0.479
X0.286 Y-0.4575
X0.3217 Y-0.4331
X0.3584 Y-0.4035
X0.3958 Y-0.3681
X0.4314 Y-0.3284
X0.4637 Y-0.2861
X0.4928 Y-0.2414
X0.5184 Y-0.1946
X0.5403 Y-0.146
X0.5577 Y-0.0971
X0.5709 Y-0.0482
X0.5799 Y0.0007
X0.5848 Y0.0493
X0.5858 Y0.0975
X0.583 Y0.1453
X0.5764 Y0.1924
X0.5661 Y0.2387
X0.5521 Y0.2839
X0.5345 Y0.3278
X0.5135 Y0.3703
X0.4889 Y0.4111
X0.4611 Y0.45
X0.43 Y0.4868
X0.3958 Y0.5212
X0.3588 Y0.553
X0.319 Y0.5818
X0.2768 Y0.6076
X0.2322 Y0.6301
X0.1857 Y0.649
X0.1374 Y0.6643
X0.0877 Y0.6758
X0.0369 Y0.6833
X-0.0148 Y0.6867
X-0.067 Y0.6859
X-0.1193 Y0.6809
X-0.1715 Y0.6717
X-0.223 Y0.6582
X-0.2733 Y0.6406
X-0.3221 Y0.6191
X-0.369 Y0.5938
X-0.4137 Y0.5649
X-0.4561 Y0.5325
X-0.4958 Y0.497
X-0.5326 Y0.4584
X-0.5663 Y0.4172
X-0.5968 Y0.3735
X-0.6238 Y0.3275
X-0.6472 Y0.2796
X-0.6669 Y0.2301
X-0.6827 Y0.1792
X-0.6947 Y0.1273
X-0.7027 Y0.0746
X-0.7066 Y0.0215
X-0.7065 Y-0.0318
X-0.7024 Y-0.085
X-0.6942 Y-0.1376
X-0.682 Y-0.1895
X-0.666 Y-0.2403
X-0.6461 Y-0.2898
X-0.6226 Y-0.3376
X-0.5955 Y-0.3835
X-0.565 Y-0.4272
X-0.5313 Y-0.4685
X-0.4946 Y-0.5071
X-0.4551 Y-0.5429
X-0.4131 Y-0.5756
X-0.3687 Y-0.6051
X-0.3222 Y-0.6312
X-0.2739 Y-0.6537
X-0.224 Y-0.6725
X-0.1729 Y-0.6875
X-0.1208 Y-0.6986
X-0.0679 Y-0.7057
X-0.0147 Y-0.7088
X0.0385 Y-0.7079
X0.0916 Y-0.703
X0.1441 Y-0.6941
X0.1959 Y-0.6813
X0.2465 Y-0.6646
X0.2957 Y-0.6442
X0.3433 Y-0.6203
X0.3891 Y-0.593
X0.4328 Y-0.5625
X0.4743 Y-0.5291
X0.5134 Y-0.4929
X0.5502 Y-0.4543
X0.5844 Y-0.4134
X0.6159 Y-0.3704
X0.6445 Y-0.3255
X0.6702 Y-0.2788
X0.6823 Y-0.253
X0.6843 Y-0.2486
X0.6861 Y-0.2441
X0.6877 Y-0.2395
X0.6925 Y-0.2247
X0.6972 Y-0.2097
X0.7061 Y-0.1798
X0.7097 Y-0.1648
X0.7154 Y-0.1348
X0.7181 Y-0.1198
X0.7234 Y-0.0899
X0.7248 Y-0.0749
X0.7285 Y-0.015
X0.7294 Y0.
X0.7285 Y0.015
X0.7248 Y0.0749
X0.7234 Y0.0899
X0.7181 Y0.1198
X0.7154 Y0.1348
X0.7097 Y0.1648
X0.7061 Y0.1798
X0.6972 Y0.2097
X0.6925 Y0.2247
X0.6828 Y0.2547
X0.6766 Y0.2696
X0.6636 Y0.2996
X0.6598 Y0.3077
X0.6448 Y0.3396
X0.6424 Y0.3445
X0.6298 Y0.3653
X0.6243 Y0.3745
X0.6148 Y0.3899
X0.6056 Y0.4044
X0.5959 Y0.4194
X0.5855 Y0.4344
X0.5548 Y0.4715
X0.5478 Y0.4793
X0.5205 Y0.5093
X0.5098 Y0.5199
X0.4733 Y0.5542
X0.4649 Y0.5615
X0.4344 Y0.5842
X0.4139 Y0.5992
X0.4049 Y0.6056
X0.3899 Y0.6161
X0.3749 Y0.6247
X0.3396 Y0.6441
X0.3299 Y0.6491
X0.3104 Y0.6591
X0.2999 Y0.6643
X0.2549 Y0.6821
X0.2399 Y0.688
X0.2249 Y0.6931
X0.2099 Y0.6977
X0.1799 Y0.7054
X0.165 Y0.7091
X0.135 Y0.7161
X0.12 Y0.7187
X0.09 Y0.7224
X0.06 Y0.726
X0.045 Y0.7278
X0.03 Y0.728
X-0.03
X-0.045 Y0.7278
X-0.075 Y0.7243
X-0.09 Y0.7224
X-0.12 Y0.7187
X-0.135 Y0.7161
X-0.165 Y0.7091
X-0.1799 Y0.7054
X-0.2099 Y0.6977
X-0.2249 Y0.6931
X-0.2399 Y0.688
X-0.2751 Y0.6741
X-0.2999 Y0.6643
X-0.3104 Y0.6591
X-0.3299 Y0.6491
X-0.3396 Y0.6441
X-0.3749 Y0.6247
X-0.3899 Y0.6161
X-0.4049 Y0.6056
X-0.4139 Y0.5992
X-0.4349 Y0.5839
X-0.4649 Y0.5615
X-0.4733 Y0.5542
X-0.5098 Y0.5199
X-0.5205 Y0.5093
X-0.5478 Y0.4793
X-0.5548 Y0.4715
X-0.5855 Y0.4344
X-0.5959 Y0.4194
X-0.6056 Y0.4044
X-0.6151 Y0.3895
X-0.6243 Y0.3745
X-0.6333 Y0.3595
X-0.6424 Y0.3445
X-0.6448 Y0.3396
X-0.6598 Y0.3077
X-0.6636 Y0.2996
X-0.6766 Y0.2696
X-0.6828 Y0.2547
X-0.6925 Y0.2247
X-0.6972 Y0.2097
X-0.7061 Y0.1798
X-0.7097 Y0.1648
X-0.7154 Y0.1348
X-0.7181 Y0.1198
X-0.7234 Y0.0899
X-0.7248 Y0.0749
X-0.7285 Y0.015
X-0.7294 Y0.
X-0.7285 Y-0.015
X-0.7248 Y-0.0749
X-0.7234 Y-0.0899
X-0.7181 Y-0.1198
X-0.7154 Y-0.1348
X-0.7097 Y-0.1648
X-0.7061 Y-0.1798
X-0.6972 Y-0.2097
X-0.6925 Y-0.2247
X-0.6828 Y-0.2547
X-0.6766 Y-0.2696
X-0.6636 Y-0.2996
X-0.6598 Y-0.3077
X-0.6448 Y-0.3396
X-0.6424 Y-0.3445
X-0.6298 Y-0.3653
X-0.6243 Y-0.3745
X-0.6148 Y-0.3899
X-0.6056 Y-0.4044
X-0.5959 Y-0.4194
X-0.5855 Y-0.4344
X-0.5548 Y-0.4715
X-0.5478 Y-0.4793
X-0.5205 Y-0.5093
X-0.5098 Y-0.5199
X-0.4733 Y-0.5542
X-0.4649 Y-0.5615
X-0.4344 Y-0.5842
X-0.4139 Y-0.5992
X-0.4049 Y-0.6056
X-0.3899 Y-0.6161
X-0.3749 Y-0.6247
X-0.3396 Y-0.6441
X-0.3299 Y-0.6491
X-0.3104 Y-0.6591
X-0.2999 Y-0.6643
X-0.2549 Y-0.6821
X-0.2399 Y-0.688
X-0.2249 Y-0.6931
X-0.2099 Y-0.6977
X-0.1799 Y-0.7054
X-0.165 Y-0.7091
X-0.135 Y-0.7161
X-0.12 Y-0.7187
X-0.09 Y-0.7224
X-0.06 Y-0.726
X-0.045 Y-0.7278
X-0.03 Y-0.728
X0.03
X0.045 Y-0.7278
X0.075 Y-0.7243
X0.09 Y-0.7224
X0.12 Y-0.7187
X0.135 Y-0.7161
X0.165 Y-0.7091
X0.1799 Y-0.7054
X0.2099 Y-0.6977
X0.2249 Y-0.6931
X0.2399 Y-0.688
X0.2751 Y-0.6741
X0.2999 Y-0.6643
X0.3104 Y-0.6591
X0.3299 Y-0.6491
X0.3396 Y-0.6441
X0.3749 Y-0.6247
X0.3899 Y-0.6161
X0.4049 Y-0.6056
X0.4139 Y-0.5992
X0.4349 Y-0.5839
X0.4649 Y-0.5615
X0.4733 Y-0.5542
X0.5098 Y-0.5199
X0.5205 Y-0.5093
X0.5478 Y-0.4793
X0.5548 Y-0.4715
X0.5855 Y-0.4344
X0.5959 Y-0.4194
X0.6056 Y-0.4044
X0.6151 Y-0.3895
X0.6243 Y-0.3745
X0.6333 Y-0.3595
X0.6424 Y-0.3445
X0.6448 Y-0.3396
X0.6598 Y-0.3077
X0.6636 Y-0.2996
X0.6766 Y-0.2696
X0.6828 Y-0.2547
X0.6877 Y-0.2395
G03 X0.6868 Y-0.2091 I-0.0481 J0.0138
G01 X0.6849 Y-0.2038 Z-0.5197
X0.6831 Y-0.1986 Z-0.5187
X0.6813 Y-0.1935 Z-0.5172
X0.6795 Y-0.1886 Z-0.515
X0.6779 Y-0.184 Z-0.5123
X0.6764 Y-0.1797 Z-0.5091
X0.675 Y-0.1758 Z-0.5054
X0.6738 Y-0.1722 Z-0.5012
X0.6727 Y-0.1692 Z-0.4966
X0.6718 Y-0.1666 Z-0.4917
X0.6711 Y-0.1646 Z-0.4865
X0.6705 Y-0.1631 Z-0.4811
X0.6702 Y-0.1622 Z-0.4756
X0.6701 Y-0.1619 Z-0.47
Z0.6
M09
M05
G28 G91 Z0.
G90 G53 G00 X0. Y0.
(G90 G00 X0. Y0.)
G52
M30
%
