O0011 (AIR PROFILE)
(MACHINE)
(  VENDOR MATSUURA)
(  MODEL MC-510V WITH YASNAC MX3 CONTROLLER)
(  DESCRIPTION GENERIC 3-AXIS)
(T0001 D=0.5 CR=0. - ZMIN=-1.04 - FLAT END MILL)
G00
G90 G94 G17
G20
(WHEN USING FUSION 360 FOR PERSONAL USE, THE FEEDRATE OF)
(RAPID MOVES IS REDUCED TO MATCH THE FEEDRATE OF CUTTING)
(MOVES, WHICH CAN INCREASE MACHINING TIME. UNRESTRICTED RAPID)
(MOVES ARE AVAILABLE WITH A FUSION 360 SUBSCRIPTION.)
G28 G91 Z0.
G90
(2D CONTOUR1 2)
M09
T0001 M06
S100 M03
G00 G54
M09
G00 X0.6 Y-0.05
G43 Z0.6 H01
G01 Z0.2 F25.
Z0.0394 F15.
Z-0.99
G18 G02 X0.65 Z-1.04 I0.05 F25.
G01 X0.7
G17 G03 X0.75 Y0. J0.05
X-0.75 I-0.75
X0.75 I0.75
X0.7 Y0.05 I-0.05
G01 X0.65
G18 G03 X0.6 Z-0.99 K0.05
G01 Z0.6
G17
G18
G19
M05
G28 G91 Z0.
(G90 G53 G00 X0. Y0.)
G90 G00 X2. Y2.
G52
%
